Assignment 1 - Ryan Yee - 100785620/luts/bloodCC.CUBE
#Created by: Adobe Photoshop Export Color Lookup Plugin
TITLE "Untitled-1"
#LUT size
LUT_3D_SIZE 32
#data domain
DOMAIN_MIN 0.0 0.0 0.0
DOMAIN_MAX 1.0 1.0 1.0
#LUT data points
0.000000 0.000000 0.000000
0.174469 0.000000 0.000000
0.279358 0.000000 0.000000
0.366699 0.000000 0.000000
0.444794 0.000000 0.000000
0.516663 0.000000 0.000000
0.583923 0.000000 0.000000
0.647552 0.000000 0.000000
0.708282 0.000000 0.000000
0.766571 0.000000 0.000000
0.822723 0.000000 0.000000
0.877045 0.000000 0.000000
0.929810 0.000000 0.000000
0.981110 0.000000 0.000000
1.000000 0.000000 0.000000
1.000000 0.000000 0.000000
1.000000 0.000000 0.000000
1.000000 0.000000 0.000000
1.000000 0.000000 0.000000
1.000000 0.000000 0.000000
1.000000 0.000000 0.000000
1.000000 0.000000 0.000000
1.000000 0.000000 0.000000
1.000000 0.000000 0.000000
1.000000 0.000000 0.000000
1.000000 0.000000 0.000000
1.000000 0.000000 0.000000
1.000000 0.000000 0.000000
1.000000 0.000000 0.000000
1.000000 0.000000 0.000000
1.000000 0.000000 0.000000
1.000000 0.000000 0.000000
0.000000 0.000000 0.000000
0.174469 0.000000 0.000000
0.279358 0.000000 0.000000
0.366699 0.000000 0.000000
0.444794 0.000000 0.000000
0.516663 0.000000 0.000000
0.583923 0.000000 0.000000
0.647552 0.000000 0.000000
0.708282 0.000000 0.000000
0.766571 0.000000 0.000000
0.822723 0.000000 0.000000
0.877045 0.000000 0.000000
0.929810 0.000000 0.000000
0.981110 0.000000 0.000000
1.000000 0.000000 0.000000
1.000000 0.000000 0.000000
1.000000 0.000000 0.000000
1.000000 0.000000 0.000000
1.000000 0.000000 0.000000
1.000000 0.000000 0.000000
1.000000 0.000000 0.000000
1.000000 0.000000 0.000000
1.000000 0.000000 0.000000
1.000000 0.000000 0.000000
1.000000 0.000000 0.000000
1.000000 0.000000 0.000000
1.000000 0.000000 0.000000
1.000000 0.000000 0.000000
1.000000 0.000000 0.000000
1.000000 0.000000 0.000000
1.000000 0.000000 0.000000
1.000000 0.000000 0.000000
0.000000 0.000000 0.000000
0.174469 0.000000 0.000000
0.279358 0.000000 0.000000
0.366699 0.000000 0.000000
0.444794 0.000000 0.000000
0.516663 0.000000 0.000000
0.583923 0.000000 0.000000
0.647552 0.000000 0.000000
0.708282 0.000000 0.000000
0.766571 0.000000 0.000000
0.822723 0.000000 0.000000
0.877045 0.000000 0.000000
0.929810 0.000000 0.000000
0.981110 0.000000 0.000000
1.000000 0.000000 0.000000
1.000000 0.000000 0.000000
1.000000 0.000000 0.000000
1.000000 0.000000 0.000000
1.000000 0.000000 0.000000
1.000000 0.000000 0.000000
1.000000 0.000000 0.000000
1.000000 0.000000 0.000000
1.000000 0.000000 0.000000
1.000000 0.000000 0.000000
1.000000 0.000000 0.000000
1.000000 0.000000 0.000000
1.000000 0.000000 0.000000
1.000000 0.000000 0.000000
1.000000 0.000000 0.000000
1.000000 0.000000 0.000000
1.000000 0.000000 0.000000
1.000000 0.000000 0.000000
0.000000 0.000000 0.000000
0.174469 0.000000 0.000000
0.279358 0.000000 0.000000
0.366699 0.000000 0.000000
0.444794 0.000000 0.000000
0.516663 0.000000 0.000000
0.583923 0.000000 0.000000
0.647552 0.000000 0.000000
0.708282 0.000000 0.000000
0.766571 0.000000 0.000000
0.822723 0.000000 0.000000
0.877045 0.000000 0.000000
0.929810 0.000000 0.000000
0.981110 0.000000 0.000000
1.000000 0.000000 0.000000
1.000000 0.000000 0.000000
1.000000 0.000000 0.000000
1.000000 0.000000 0.000000
1.000000 0.000000 0.000000
1.000000 0.000000 0.000000
1.000000 0.000000 0.000000
1.000000 0.000000 0.000000
1.000000 0.000000 0.000000
1.000000 0.000000 0.000000
1.000000 0.000000 0.000000
1.000000 0.000000 0.000000
1.000000 0.000000 0.000000
1.000000 0.000000 0.000000
1.000000 0.000000 0.000000
1.000000 0.000000 0.000000
1.000000 0.000000 0.000000
1.000000 0.000000 0.000000
0.000000 0.000000 0.000000
0.174469 0.000000 0.000000
0.279358 0.000000 0.000000
0.366699 0.000000 0.000000
0.444794 0.000000 0.000000
0.516663 0.000000 0.000000
0.583923 0.000000 0.000000
0.647552 0.000000 0.000000
0.708282 0.000000 0.000000
0.766571 0.000000 0.000000
0.822723 0.000000 0.000000
0.877045 0.000000 0.000000
0.929810 0.000000 0.000000
0.981110 0.000000 0.000000
1.000000 0.000000 0.000000
1.000000 0.000000 0.000000
1.000000 0.000000 0.000000
1.000000 0.000000 0.000000
1.000000 0.000000 0.000000
1.000000 0.000000 0.000000
1.000000 0.000000 0.000000
1.000000 0.000000 0.000000
1.000000 0.000000 0.000000
1.000000 0.000000 0.000000
1.000000 0.000000 0.000000
1.000000 0.000000 0.000000
1.000000 0.000000 0.000000
1.000000 0.000000 0.000000
1.000000 0.000000 0.000000
1.000000 0.000000 0.000000
1.000000 0.000000 0.000000
1.000000 0.000000 0.000000
0.000000 0.000000 0.000000
0.174469 0.000000 0.000000
0.279358 0.000000 0.000000
0.366699 0.000000 0.000000
0.444794 0.000000 0.000000
0.516663 0.000000 0.000000
0.583923 0.000000 0.000000
0.647552 0.000000 0.000000
0.708282 0.000000 0.000000
0.766571 0.000000 0.000000
0.822723 0.000000 0.000000
0.877045 0.000000 0.000000
0.929810 0.000000 0.000000
0.981110 0.000000 0.000000
1.000000 0.000000 0.000000
1.000000 0.000000 0.000000
1.000000 0.000000 0.000000
1.000000 0.000000 0.000000
1.000000 0.000000 0.000000
1.000000 0.000000 0.000000
1.000000 0.000000 0.000000
1.000000 0.000000 0.000000
1.000000 0.000000 0.000000
1.000000 0.000000 0.000000
1.000000 0.000000 0.000000
1.000000 0.000000 0.000000
1.000000 0.000000 0.000000
1.000000 0.000000 0.000000
1.000000 0.000000 0.000000
1.000000 0.000000 0.000000
1.000000 0.000000 0.000000
1.000000 0.000000 0.000000
0.000000 0.000000 0.000000
0.174469 0.000000 0.000000
0.279358 0.000000 0.000000
0.366699 0.000000 0.000000
0.444794 0.000000 0.000000
0.516663 0.000000 0.000000
0.583923 0.000000 0.000000
0.647552 0.000000 0.000000
0.708282 0.000000 0.000000
0.766571 0.000000 0.000000
0.822723 0.000000 0.000000
0.877045 0.000000 0.000000
0.929810 0.000000 0.000000
0.981110 0.000000 0.000000
1.000000 0.000000 0.000000
1.000000 0.000000 0.000000
1.000000 0.000000 0.000000
1.000000 0.000000 0.000000
1.000000 0.000000 0.000000
1.000000 0.000000 0.000000
1.000000 0.000000 0.000000
1.000000 0.000000 0.000000
1.000000 0.000000 0.000000
1.000000 0.000000 0.000000
1.000000 0.000000 0.000000
1.000000 0.000000 0.000000
1.000000 0.000000 0.000000
1.000000 0.000000 0.000000
1.000000 0.000000 0.000000
1.000000 0.000000 0.000000
1.000000 0.000000 0.000000
1.000000 0.000000 0.000000
0.000000 0.000000 0.000000
0.174469 0.000000 0.000000
0.279358 0.000000 0.000000
0.366699 0.000000 0.000000
0.444794 0.000000 0.000000
0.516663 0.000000 0.000000
0.583923 0.000000 0.000000
0.647552 0.000000 0.000000
0.708282 0.000000 0.000000
0.766571 0.000000 0.000000
0.822723 0.000000 0.000000
0.877045 0.000000 0.000000
0.929810 0.000000 0.000000
0.981110 0.000000 0.000000
1.000000 0.000000 0.000000
1.000000 0.000000 0.000000
1.000000 0.000000 0.000000
1.000000 0.000000 0.000000
1.000000 0.000000 0.000000
1.000000 0.000000 0.000000
1.000000 0.000000 0.000000
1.000000 0.000000 0.000000
1.000000 0.000000 0.000000
1.000000 0.000000 0.000000
1.000000 0.000000 0.000000
1.000000 0.000000 0.000000
1.000000 0.000000 0.000000
1.000000 0.000000 0.000000
1.000000 0.000000 0.000000
1.000000 0.000000 0.000000
1.000000 0.000000 0.000000
1.000000 0.000000 0.000000
0.000000 0.000000 0.000000
0.174469 0.000000 0.000000
0.279358 0.000000 0.000000
0.366699 0.000000 0.000000
0.444794 0.000000 0.000000
0.516663 0.000000 0.000000
0.583923 0.000000 0.000000
0.647552 0.000000 0.000000
0.708282 0.000000 0.000000
0.766571 0.000000 0.000000
0.822723 0.000000 0.000000
0.877045 0.000000 0.000000
0.929810 0.000000 0.000000
0.981110 0.000000 0.000000
1.000000 0.000000 0.000000
1.000000 0.000000 0.000000
1.000000 0.000000 0.000000
1.000000 0.000000 0.000000
1.000000 0.000000 0.000000
1.000000 0.000000 0.000000
1.000000 0.000000 0.000000
1.000000 0.000000 0.000000
1.000000 0.000000 0.000000
1.000000 0.000000 0.000000
1.000000 0.000000 0.000000
1.000000 0.000000 0.000000
1.000000 0.000000 0.000000
1.000000 0.000000 0.000000
1.000000 0.000000 0.000000
1.000000 0.000000 0.000000
1.000000 0.000000 0.000000
1.000000 0.000000 0.000000
0.000000 0.000000 0.000000
0.174469 0.000000 0.000000
0.279358 0.000000 0.000000
0.366699 0.000000 0.000000
0.444794 0.000000 0.000000
0.516663 0.000000 0.000000
0.583923 0.000000 0.000000
0.647552 0.000000 0.000000
0.708282 0.000000 0.000000
0.766571 0.000000 0.000000
0.822723 0.000000 0.000000
0.877045 0.000000 0.000000
0.929810 0.000000 0.000000
0.981110 0.000000 0.000000
1.000000 0.000000 0.000000
1.000000 0.000000 0.000000
1.000000 0.000000 0.000000
1.000000 0.000000 0.000000
1.000000 0.000000 0.000000
1.000000 0.000000 0.000000
1.000000 0.000000 0.000000
1.000000 0.000000 0.000000
1.000000 0.000000 0.000000
1.000000 0.000000 0.000000
1.000000 0.000000 0.000000
1.000000 0.000000 0.000000
1.000000 0.000000 0.000000
1.000000 0.000000 0.000000
1.000000 0.000000 0.000000
1.000000 0.000000 0.000000
1.000000 0.000000 0.000000
1.000000 0.000000 0.000000
0.000000 0.000000 0.000000
0.174469 0.000000 0.000000
0.279358 0.000000 0.000000
0.366699 0.000000 0.000000
0.444794 0.000000 0.000000
0.516663 0.000000 0.000000
0.583923 0.000000 0.000000
0.647552 0.000000 0.000000
0.708282 0.000000 0.000000
0.766571 0.000000 0.000000
0.822723 0.000000 0.000000
0.877045 0.000000 0.000000
0.929810 0.000000 0.000000
0.981110 0.000000 0.000000
1.000000 0.000000 0.000000
1.000000 0.000000 0.000000
1.000000 0.000000 0.000000
1.000000 0.000000 0.000000
1.000000 0.000000 0.000000
1.000000 0.000000 0.000000
1.000000 0.000000 0.000000
1.000000 0.000000 0.000000
1.000000 0.000000 0.000000
1.000000 0.000000 0.000000
1.000000 0.000000 0.000000
1.000000 0.000000 0.000000
1.000000 0.000000 0.000000
1.000000 0.000000 0.000000
1.000000 0.000000 0.000000
1.000000 0.000000 0.000000
1.000000 0.000000 0.000000
1.000000 0.000000 0.000000
0.000000 0.000000 0.000000
0.174469 0.000000 0.000000
0.279358 0.000000 0.000000
0.366699 0.000000 0.000000
0.444794 0.000000 0.000000
0.516663 0.000000 0.000000
0.583923 0.000000 0.000000
0.647552 0.000000 0.000000
0.708282 0.000000 0.000000
0.766571 0.000000 0.000000
0.822723 0.000000 0.000000
0.877045 0.000000 0.000000
0.929810 0.000000 0.000000
0.981110 0.000000 0.000000
1.000000 0.000000 0.000000
1.000000 0.000000 0.000000
1.000000 0.000000 0.000000
1.000000 0.000000 0.000000
1.000000 0.000000 0.000000
1.000000 0.000000 0.000000
1.000000 0.000000 0.000000
1.000000 0.000000 0.000000
1.000000 0.000000 0.000000
1.000000 0.000000 0.000000
1.000000 0.000000 0.000000
1.000000 0.000000 0.000000
1.000000 0.000000 0.000000
1.000000 0.000000 0.000000
1.000000 0.000000 0.000000
1.000000 0.000000 0.000000
1.000000 0.000000 0.000000
1.000000 0.000000 0.000000
0.000000 0.000000 0.000000
0.174469 0.000000 0.000000
0.279358 0.000000 0.000000
0.366699 0.000000 0.000000
0.444794 0.000000 0.000000
0.516663 0.000000 0.000000
0.583923 0.000000 0.000000
0.647552 0.000000 0.000000
0.708282 0.000000 0.000000
0.766571 0.000000 0.000000
0.822723 0.000000 0.000000
0.877045 0.000000 0.000000
0.929810 0.000000 0.000000
0.981110 0.000000 0.000000
1.000000 0.000000 0.000000
1.000000 0.000000 0.000000
1.000000 0.000000 0.000000
1.000000 0.000000 0.000000
1.000000 0.000000 0.000000
1.000000 0.000000 0.000000
1.000000 0.000000 0.000000
1.000000 0.000000 0.000000
1.000000 0.000000 0.000000
1.000000 0.000000 0.000000
1.000000 0.000000 0.000000
1.000000 0.000000 0.000000
1.000000 0.000000 0.000000
1.000000 0.000000 0.000000
1.000000 0.000000 0.000000
1.000000 0.000000 0.000000
1.000000 0.000000 0.000000
1.000000 0.000000 0.000000
0.000000 0.000000 0.000000
0.174469 0.000000 0.000000
0.279358 0.000000 0.000000
0.366699 0.000000 0.000000
0.444794 0.000000 0.000000
0.516663 0.000000 0.000000
0.583923 0.000000 0.000000
0.647552 0.000000 0.000000
0.708282 0.000000 0.000000
0.766571 0.000000 0.000000
0.822723 0.000000 0.000000
0.877045 0.000000 0.000000
0.929810 0.000000 0.000000
0.981110 0.000000 0.000000
1.000000 0.000000 0.000000
1.000000 0.000000 0.000000
1.000000 0.000000 0.000000
1.000000 0.000000 0.000000
1.000000 0.000000 0.000000
1.000000 0.000000 0.000000
1.000000 0.000000 0.000000
1.000000 0.000000 0.000000
1.000000 0.000000 0.000000
1.000000 0.000000 0.000000
1.000000 0.000000 0.000000
1.000000 0.000000 0.000000
1.000000 0.000000 0.000000
1.000000 0.000000 0.000000
1.000000 0.000000 0.000000
1.000000 0.000000 0.000000
1.000000 0.000000 0.000000
1.000000 0.000000 0.000000
0.000000 0.000000 0.000000
0.174469 0.000000 0.000000
0.279358 0.000000 0.000000
0.366699 0.000000 0.000000
0.444794 0.000000 0.000000
0.516663 0.000000 0.000000
0.583923 0.000000 0.000000
0.647552 0.000000 0.000000
0.708282 0.000000 0.000000
0.766571 0.000000 0.000000
0.822723 0.000000 0.000000
0.877045 0.000000 0.000000
0.929810 0.000000 0.000000
0.981110 0.000000 0.000000
1.000000 0.000000 0.000000
1.000000 0.000000 0.000000
1.000000 0.000000 0.000000
1.000000 0.000000 0.000000
1.000000 0.000000 0.000000
1.000000 0.000000 0.000000
1.000000 0.000000 0.000000
1.000000 0.000000 0.000000
1.000000 0.000000 0.000000
1.000000 0.000000 0.000000
1.000000 0.000000 0.000000
1.000000 0.000000 0.000000
1.000000 0.000000 0.000000
1.000000 0.000000 0.000000
1.000000 0.000000 0.000000
1.000000 0.000000 0.000000
1.000000 0.000000 0.000000
1.000000 0.000000 0.000000
0.000000 0.000000 0.000000
0.174469 0.000000 0.000000
0.279358 0.000000 0.000000
0.366699 0.000000 0.000000
0.444794 0.000000 0.000000
0.516663 0.000000 0.000000
0.583923 0.000000 0.000000
0.647552 0.000000 0.000000
0.708282 0.000000 0.000000
0.766571 0.000000 0.000000
0.822723 0.000000 0.000000
0.877045 0.000000 0.000000
0.929810 0.000000 0.000000
0.981110 0.000000 0.000000
1.000000 0.000000 0.000000
1.000000 0.000000 0.000000
1.000000 0.000000 0.000000
1.000000 0.000000 0.000000
1.000000 0.000000 0.000000
1.000000 0.000000 0.000000
1.000000 0.000000 0.000000
1.000000 0.000000 0.000000
1.000000 0.000000 0.000000
1.000000 0.000000 0.000000
1.000000 0.000000 0.000000
1.000000 0.000000 0.000000
1.000000 0.000000 0.000000
1.000000 0.000000 0.000000
1.000000 0.000000 0.000000
1.000000 0.000000 0.000000
1.000000 0.000000 0.000000
1.000000 0.000000 0.000000
0.000000 0.000000 0.000000
0.174469 0.000000 0.000000
0.279358 0.000000 0.000000
0.366699 0.000000 0.000000
0.444794 0.000000 0.000000
0.516663 0.000000 0.000000
0.583923 0.000000 0.000000
0.647552 0.000000 0.000000
0.708282 0.000000 0.000000
0.766571 0.000000 0.000000
0.822723 0.000000 0.000000
0.877045 0.000000 0.000000
0.929810 0.000000 0.000000
0.981110 0.000000 0.000000
1.000000 0.000000 0.000000
1.000000 0.000000 0.000000
1.000000 0.000000 0.000000
1.000000 0.000000 0.000000
1.000000 0.000000 0.000000
1.000000 0.000000 0.000000
1.000000 0.000000 0.000000
1.000000 0.000000 0.000000
1.000000 0.000000 0.000000
1.000000 0.000000 0.000000
1.000000 0.000000 0.000000
1.000000 0.000000 0.000000
1.000000 0.000000 0.000000
1.000000 0.000000 0.000000
1.000000 0.000000 0.000000
1.000000 0.000000 0.000000
1.000000 0.000000 0.000000
1.000000 0.000000 0.000000
0.000000 1.000000 0.000000
0.174469 1.000000 0.000000
0.279358 1.000000 0.000000
0.366699 1.000000 0.000000
0.444794 1.000000 0.000000
0.516663 1.000000 0.000000
0.583923 1.000000 0.000000
0.647552 1.000000 0.000000
0.708282 1.000000 0.000000
0.766571 1.000000 0.000000
0.822723 1.000000 0.000000
0.877045 1.000000 0.000000
0.929810 1.000000 0.000000
0.981110 1.000000 0.000000
1.000000 1.000000 0.000000
1.000000 1.000000 0.000000
1.000000 1.000000 0.000000
1.000000 1.000000 0.000000
1.000000 1.000000 0.000000
1.000000 1.000000 0.000000
1.000000 1.000000 0.000000
1.000000 1.000000 0.000000
1.000000 1.000000 0.000000
1.000000 1.000000 0.000000
1.000000 1.000000 0.000000
1.000000 1.000000 0.000000
1.000000 1.000000 0.000000
1.000000 1.000000 0.000000
1.000000 1.000000 0.000000
1.000000 1.000000 0.000000
1.000000 1.000000 0.000000
1.000000 1.000000 0.000000
0.000000 1.000000 0.000000
0.174469 1.000000 0.000000
0.279358 1.000000 0.000000
0.366699 1.000000 0.000000
0.444794 1.000000 0.000000
0.516663 1.000000 0.000000
0.583923 1.000000 0.000000
0.647552 1.000000 0.000000
0.708282 1.000000 0.000000
0.766571 1.000000 0.000000
0.822723 1.000000 0.000000
0.877045 1.000000 0.000000
0.929810 1.000000 0.000000
0.981110 1.000000 0.000000
1.000000 1.000000 0.000000
1.000000 1.000000 0.000000
1.000000 1.000000 0.000000
1.000000 1.000000 0.000000
1.000000 1.000000 0.000000
1.000000 1.000000 0.000000
1.000000 1.000000 0.000000
1.000000 1.000000 0.000000
1.000000 1.000000 0.000000
1.000000 1.000000 0.000000
1.000000 1.000000 0.000000
1.000000 1.000000 0.000000
1.000000 1.000000 0.000000
1.000000 1.000000 0.000000
1.000000 1.000000 0.000000
1.000000 1.000000 0.000000
1.000000 1.000000 0.000000
1.000000 1.000000 0.000000
0.000000 1.000000 0.000000
0.174469 1.000000 0.000000
0.279358 1.000000 0.000000
0.366699 1.000000 0.000000
0.444794 1.000000 0.000000
0.516663 1.000000 0.000000
0.583923 1.000000 0.000000
0.647552 1.000000 0.000000
0.708282 1.000000 0.000000
0.766571 1.000000 0.000000
0.822723 1.000000 0.000000
0.877045 1.000000 0.000000
0.929810 1.000000 0.000000
0.981110 1.000000 0.000000
1.000000 1.000000 0.000000
1.000000 1.000000 0.000000
1.000000 1.000000 0.000000
1.000000 1.000000 0.000000
1.000000 1.000000 0.000000
1.000000 1.000000 0.000000
1.000000 1.000000 0.000000
1.000000 1.000000 0.000000
1.000000 1.000000 0.000000
1.000000 1.000000 0.000000
1.000000 1.000000 0.000000
1.000000 1.000000 0.000000
1.000000 1.000000 0.000000
1.000000 1.000000 0.000000
1.000000 1.000000 0.000000
1.000000 1.000000 0.000000
1.000000 1.000000 0.000000
1.000000 1.000000 0.000000
0.000000 1.000000 0.000000
0.174469 1.000000 0.000000
0.279358 1.000000 0.000000
0.366699 1.000000 0.000000
0.444794 1.000000 0.000000
0.516663 1.000000 0.000000
0.583923 1.000000 0.000000
0.647552 1.000000 0.000000
0.708282 1.000000 0.000000
0.766571 1.000000 0.000000
0.822723 1.000000 0.000000
0.877045 1.000000 0.000000
0.929810 1.000000 0.000000
0.981110 1.000000 0.000000
1.000000 1.000000 0.000000
1.000000 1.000000 0.000000
1.000000 1.000000 0.000000
1.000000 1.000000 0.000000
1.000000 1.000000 0.000000
1.000000 1.000000 0.000000
1.000000 1.000000 0.000000
1.000000 1.000000 0.000000
1.000000 1.000000 0.000000
1.000000 1.000000 0.000000
1.000000 1.000000 0.000000
1.000000 1.000000 0.000000
1.000000 1.000000 0.000000
1.000000 1.000000 0.000000
1.000000 1.000000 0.000000
1.000000 1.000000 0.000000
1.000000 1.000000 0.000000
1.000000 1.000000 0.000000
0.000000 1.000000 0.000000
0.174469 1.000000 0.000000
0.279358 1.000000 0.000000
0.366699 1.000000 0.000000
0.444794 1.000000 0.000000
0.516663 1.000000 0.000000
0.583923 1.000000 0.000000
0.647552 1.000000 0.000000
0.708282 1.000000 0.000000
0.766571 1.000000 0.000000
0.822723 1.000000 0.000000
0.877045 1.000000 0.000000
0.929810 1.000000 0.000000
0.981110 1.000000 0.000000
1.000000 1.000000 0.000000
1.000000 1.000000 0.000000
1.000000 1.000000 0.000000
1.000000 1.000000 0.000000
1.000000 1.000000 0.000000
1.000000 1.000000 0.000000
1.000000 1.000000 0.000000
1.000000 1.000000 0.000000
1.000000 1.000000 0.000000
1.000000 1.000000 0.000000
1.000000 1.000000 0.000000
1.000000 1.000000 0.000000
1.000000 1.000000 0.000000
1.000000 1.000000 0.000000
1.000000 1.000000 0.000000
1.000000 1.000000 0.000000
1.000000 1.000000 0.000000
1.000000 1.000000 0.000000
0.000000 1.000000 0.000000
0.174469 1.000000 0.000000
0.279358 1.000000 0.000000
0.366699 1.000000 0.000000
0.444794 1.000000 0.000000
0.516663 1.000000 0.000000
0.583923 1.000000 0.000000
0.647552 1.000000 0.000000
0.708282 1.000000 0.000000
0.766571 1.000000 0.000000
0.822723 1.000000 0.000000
0.877045 1.000000 0.000000
0.929810 1.000000 0.000000
0.981110 1.000000 0.000000
1.000000 1.000000 0.000000
1.000000 1.000000 0.000000
1.000000 1.000000 0.000000
1.000000 1.000000 0.000000
1.000000 1.000000 0.000000
1.000000 1.000000 0.000000
1.000000 1.000000 0.000000
1.000000 1.000000 0.000000
1.000000 1.000000 0.000000
1.000000 1.000000 0.000000
1.000000 1.000000 0.000000
1.000000 1.000000 0.000000
1.000000 1.000000 0.000000
1.000000 1.000000 0.000000
1.000000 1.000000 0.000000
1.000000 1.000000 0.000000
1.000000 1.000000 0.000000
1.000000 1.000000 0.000000
0.000000 1.000000 0.000000
0.174469 1.000000 0.000000
0.279358 1.000000 0.000000
0.366699 1.000000 0.000000
0.444794 1.000000 0.000000
0.516663 1.000000 0.000000
0.583923 1.000000 0.000000
0.647552 1.000000 0.000000
0.708282 1.000000 0.000000
0.766571 1.000000 0.000000
0.822723 1.000000 0.000000
0.877045 1.000000 0.000000
0.929810 1.000000 0.000000
0.981110 1.000000 0.000000
1.000000 1.000000 0.000000
1.000000 1.000000 0.000000
1.000000 1.000000 0.000000
1.000000 1.000000 0.000000
1.000000 1.000000 0.000000
1.000000 1.000000 0.000000
1.000000 1.000000 0.000000
1.000000 1.000000 0.000000
1.000000 1.000000 0.000000
1.000000 1.000000 0.000000
1.000000 1.000000 0.000000
1.000000 1.000000 0.000000
1.000000 1.000000 0.000000
1.000000 1.000000 0.000000
1.000000 1.000000 0.000000
1.000000 1.000000 0.000000
1.000000 1.000000 0.000000
1.000000 1.000000 0.000000
0.000000 1.000000 0.000000
0.174469 1.000000 0.000000
0.279358 1.000000 0.000000
0.366699 1.000000 0.000000
0.444794 1.000000 0.000000
0.516663 1.000000 0.000000
0.583923 1.000000 0.000000
0.647552 1.000000 0.000000
0.708282 1.000000 0.000000
0.766571 1.000000 0.000000
0.822723 1.000000 0.000000
0.877045 1.000000 0.000000
0.929810 1.000000 0.000000
0.981110 1.000000 0.000000
1.000000 1.000000 0.000000
1.000000 1.000000 0.000000
1.000000 1.000000 0.000000
1.000000 1.000000 0.000000
1.000000 1.000000 0.000000
1.000000 1.000000 0.000000
1.000000 1.000000 0.000000
1.000000 1.000000 0.000000
1.000000 1.000000 0.000000
1.000000 1.000000 0.000000
1.000000 1.000000 0.000000
1.000000 1.000000 0.000000
1.000000 1.000000 0.000000
1.000000 1.000000 0.000000
1.000000 1.000000 0.000000
1.000000 1.000000 0.000000
1.000000 1.000000 0.000000
1.000000 1.000000 0.000000
0.000000 1.000000 0.000000
0.174469 1.000000 0.000000
0.279358 1.000000 0.000000
0.366699 1.000000 0.000000
0.444794 1.000000 0.000000
0.516663 1.000000 0.000000
0.583923 1.000000 0.000000
0.647552 1.000000 0.000000
0.708282 1.000000 0.000000
0.766571 1.000000 0.000000
0.822723 1.000000 0.000000
0.877045 1.000000 0.000000
0.929810 1.000000 0.000000
0.981110 1.000000 0.000000
1.000000 1.000000 0.000000
1.000000 1.000000 0.000000
1.000000 1.000000 0.000000
1.000000 1.000000 0.000000
1.000000 1.000000 0.000000
1.000000 1.000000 0.000000
1.000000 1.000000 0.000000
1.000000 1.000000 0.000000
1.000000 1.000000 0.000000
1.000000 1.000000 0.000000
1.000000 1.000000 0.000000
1.000000 1.000000 0.000000
1.000000 1.000000 0.000000
1.000000 1.000000 0.000000
1.000000 1.000000 0.000000
1.000000 1.000000 0.000000
1.000000 1.000000 0.000000
1.000000 1.000000 0.000000
0.000000 1.000000 0.000000
0.174469 1.000000 0.000000
0.279358 1.000000 0.000000
0.366699 1.000000 0.000000
0.444794 1.000000 0.000000
0.516663 1.000000 0.000000
0.583923 1.000000 0.000000
0.647552 1.000000 0.000000
0.708282 1.000000 0.000000
0.766571 1.000000 0.000000
0.822723 1.000000 0.000000
0.877045 1.000000 0.000000
0.929810 1.000000 0.000000
0.981110 1.000000 0.000000
1.000000 1.000000 0.000000
1.000000 1.000000 0.000000
1.000000 1.000000 0.000000
1.000000 1.000000 0.000000
1.000000 1.000000 0.000000
1.000000 1.000000 0.000000
1.000000 1.000000 0.000000
1.000000 1.000000 0.000000
1.000000 1.000000 0.000000
1.000000 1.000000 0.000000
1.000000 1.000000 0.000000
1.000000 1.000000 0.000000
1.000000 1.000000 0.000000
1.000000 1.000000 0.000000
1.000000 1.000000 0.000000
1.000000 1.000000 0.000000
1.000000 1.000000 0.000000
1.000000 1.000000 0.000000
0.000000 1.000000 0.000000
0.174469 1.000000 0.000000
0.279358 1.000000 0.000000
0.366699 1.000000 0.000000
0.444794 1.000000 0.000000
0.516663 1.000000 0.000000
0.583923 1.000000 0.000000
0.647552 1.000000 0.000000
0.708282 1.000000 0.000000
0.766571 1.000000 0.000000
0.822723 1.000000 0.000000
0.877045 1.000000 0.000000
0.929810 1.000000 0.000000
0.981110 1.000000 0.000000
1.000000 1.000000 0.000000
1.000000 1.000000 0.000000
1.000000 1.000000 0.000000
1.000000 1.000000 0.000000
