Assignment 1 - Ryan Yee - 100785620/luts/bloodCC.CUBE
#Created by: Adobe Photoshop Export Color Lookup Plugin
TITLE "Untitled-1"
#LUT size
LUT_3D_SIZE 8
#data domain
#LUT data points
DOMAIN_MIN 0.000000 0.000000 0.000000
DOMAIN_MAX 0.903226 0.903226 0.903226
0.000000 0.000000 0.000000
0.444794 0.000000 0.000000
0.708282 0.000000 0.000000
0.929810 0.000000 0.000000
1.000000 0.000000 0.000000
1.000000 0.000000 0.000000
1.000000 0.000000 0.000000
1.000000 0.000000 0.000000
0.000000 0.000000 0.000000
0.444794 0.000000 0.000000
0.708282 0.000000 0.000000
0.929810 0.000000 0.000000
1.000000 0.000000 0.000000
1.000000 0.000000 0.000000
1.000000 0.000000 0.000000
1.000000 0.000000 0.000000
0.000000 0.000000 0.000000
0.444794 0.000000 0.000000
0.708282 0.000000 0.000000
0.929810 0.000000 0.000000
1.000000 0.000000 0.000000
1.000000 0.000000 0.000000
1.000000 0.000000 0.000000
1.000000 0.000000 0.000000
0.000000 0.000000 0.000000
0.444794 0.000000 0.000000
0.708282 0.000000 0.000000
0.929810 0.000000 0.000000
1.000000 0.000000 0.000000
1.000000 0.000000 0.000000
1.000000 0.000000 0.000000
1.000000 0.000000 0.000000
0.000000 0.000000 0.000000
0.444794 0.000000 0.000000
0.708282 0.000000 0.000000
0.929810 0.000000 0.000000
1.000000 0.000000 0.000000
1.000000 0.000000 0.000000
1.000000 0.000000 0.000000
1.000000 0.000000 0.000000
0.000000 1.000000 0.000000
0.444794 1.000000 0.000000
0.708282 1.000000 0.000000
0.929810 1.000000 0.000000
1.000000 1.000000 0.000000
1.000000 1.000000 0.000000
1.000000 1.000000 0.000000
1.000000 1.000000 0.000000
0.000000 1.000000 0.000000
0.444794 1.000000 0.000000
0.708282 1.000000 0.000000
0.929810 1.000000 0.000000
1.000000 1.000000 0.000000
1.000000 1.000000 0.000000
1.000000 1.000000 0.000000
1.000000 1.000000 0.000000
0.000000 1.000000 0.000000
0.444794 1.000000 0.000000
0.708282 1.000000 0.000000
0.929810 1.000000 0.000000
1.000000 1.000000 0.000000
1.000000 1.000000 0.000000
1.000000 1.000000 0.000000
1.000000 1.000000 0.000000
0.000000 0.000000 0.000000
0.444794 0.000000 0.000000
0.708282 0.000000 0.000000
0.929810 0.000000 0.000000
1.000000 0.000000 0.000000
1.000000 0.000000 0.000000
1.000000 0.000000 0.000000
1.000000 0.000000 0.000000
0.000000 0.000000 0.000000
0.444794 0.000000 0.000000
0.708282 0.000000 0.000000
0.929810 0.000000 0.000000
1.000000 0.000000 0.000000
1.000000 0.000000 0.000000
1.000000 0.000000 0.000000
1.000000 0.000000 0.000000
0.000000 0.000000 0.000000
0.444794 0.000000 0.000000
0.708282 0.000000 0.000000
0.929810 0.000000 0.000000
1.000000 0.000000 0.000000
1.000000 0.000000 0.000000
1.000000 0.000000 0.000000
1.000000 0.000000 0.000000
0.000000 0.000000 0.000000
0.444794 0.000000 0.000000
0.708282 0.000000 0.000000
0.929810 0.000000 0.000000
1.000000 0.000000 0.000000
1.000000 0.000000 0.000000
1.000000 0.000000 0.000000
1.000000 0.000000 0.000000
0.000000 0.000000 0.000000
0.444794 0.000000 0.000000
0.708282 0.000000 0.000000
0.929810 0.000000 0.000000
1.000000 0.000000 0.000000
1.000000 0.000000 0.000000
1.000000 0.000000 0.000000
1.000000 0.000000 0.000000
0.000000 1.000000 0.000000
0.444794 1.000000 0.000000
0.708282 1.000000 0.000000
0.929810 1.000000 0.000000
1.000000 1.000000 0.000000
1.000000 1.000000 0.000000
1.000000 1.000000 0.000000
1.000000 1.000000 0.000000
0.000000 1.000000 0.000000
0.444794 1.000000 0.000000
0.708282 1.000000 0.000000
0.929810 1.000000 0.000000
1.000000 1.000000 0.000000
1.000000 1.000000 0.000000
1.000000 1.000000 0.000000
1.000000 1.000000 0.000000
0.000000 1.000000 0.000000
0.444794 1.000000 0.000000
0.708282 1.000000 0.000000
0.929810 1.000000 0.000000
1.000000 1.000000 0.000000
1.000000 1.000000 0.000000
1.000000 1.000000 0.000000
1.000000 1.000000 0.000000
0.000000 0.000000 0.000000
0.444794 0.000000 0.000000
0.708282 0.000000 0.000000
0.929810 0.000000 0.000000
1.000000 0.000000 0.000000
1.000000 0.000000 0.000000
1.000000 0.000000 0.000000
1.000000 0.000000 0.000000
0.000000 0.000000 0.000000
0.444794 0.000000 0.000000
0.708282 0.000000 0.000000
0.929810 0.000000 0.000000
1.000000 0.000000 0.000000
1.000000 0.000000 0.000000
1.000000 0.000000 0.000000
1.000000 0.000000 0.000000
0.000000 0.000000 0.000000
0.444794 0.000000 0.000000
0.708282 0.000000 0.000000
0.929810 0.000000 0.000000
1.000000 0.000000 0.000000
1.000000 0.000000 0.000000
1.000000 0.000000 0.000000
1.000000 0.000000 0.000000
0.000000 0.000000 0.000000
0.444794 0.000000 0.000000
0.708282 0.000000 0.000000
0.929810 0.000000 0.000000
1.000000 0.000000 0.000000
1.000000 0.000000 0.000000
1.000000 0.000000 0.000000
1.000000 0.000000 0.000000
0.000000 0.000000 0.000000
0.444794 0.000000 0.000000
0.708282 0.000000 0.000000
0.929810 0.000000 0.000000
1.000000 0.000000 0.000000
1.000000 0.000000 0.000000
1.000000 0.000000 0.000000
1.000000 0.000000 0.000000
0.000000 1.000000 0.000000
0.444794 1.000000 0.000000
0.708282 1.000000 0.000000
0.929810 1.000000 0.000000
1.000000 1.000000 0.000000
1.000000 1.000000 0.000000
1.000000 1.000000 0.000000
1.000000 1.000000 0.000000
0.000000 1.000000 0.000000
0.444794 1.000000 0.000000
0.708282 1.000000 0.000000
0.929810 1.000000 0.000000
1.000000 1.000000 0.000000
1.000000 1.000000 0.000000
1.000000 1.000000 0.000000
1.000000 1.000000 0.000000
0.000000 1.000000 0.000000
0.444794 1.000000 0.000000
0.708282 1.000000 0.000000
0.929810 1.000000 0.000000
1.000000 1.000000 0.000000
1.000000 1.000000 0.000000
1.000000 1.000000 0.000000
1.000000 1.000000 0.000000
0.000000 0.000000 0.000000
0.444794 0.000000 0.000000
0.708282 0.000000 0.000000
0.929810 0.000000 0.000000
1.000000 0.000000 0.000000
1.000000 0.000000 0.000000
1.000000 0.000000 0.000000
1.000000 0.000000 0.000000
0.000000 0.000000 0.000000
0.444794 0.000000 0.000000
0.708282 0.000000 0.000000
0.929810 0.000000 0.000000
1.000000 0.000000 0.000000
1.000000 0.000000 0.000000
1.000000 0.000000 0.000000
1.000000 0.000000 0.000000
0.000000 0.000000 0.000000
0.444794 0.000000 0.000000
0.708282 0.000000 0.000000
0.929810 0.000000 0.000000
1.000000 0.000000 0.000000
1.000000 0.000000 0.000000
1.000000 0.000000 0.000000
1.000000 0.000000 0.000000
0.000000 0.000000 0.000000
0.444794 0.000000 0.000000
0.708282 0.000000 0.000000
0.929810 0.000000 0.000000
1.000000 0.000000 0.000000
1.000000 0.000000 0.000000
1.000000 0.000000 0.000000
1.000000 0.000000 0.000000
0.000000 0.000000 0.000000
0.444794 0.000000 0.000000
0.708282 0.000000 0.000000
0.929810 0.000000 0.000000
1.000000 0.000000 0.000000
1.000000 0.000000 0.000000
1.000000 0.000000 0.000000
1.000000 0.000000 0.000000
0.000000 1.000000 0.000000
0.444794 1.000000 0.000000
0.708282 1.000000 0.000000
0.929810 1.000000 0.000000
1.000000 1.000000 0.000000
1.000000 1.000000 0.000000
1.000000 1.000000 0.000000
1.000000 1.000000 0.000000
0.000000 1.000000 0.000000
0.444794 1.000000 0.000000
0.708282 1.000000 0.000000
0.929810 1.000000 0.000000
1.000000 1.000000 0.000000
1.000000 1.000000 0.000000
1.000000 1.000000 0.000000
1.000000 1.000000 0.000000
0.000000 1.000000 0.000000
0.444794 1.000000 0.000000
0.708282 1.000000 0.000000
0.929810 1.000000 0.000000
1.000000 1.000000 0.000000
1.000000 1.000000 0.000000
1.000000 1.000000 0.000000
1.000000 1.000000 0.000000
0.000000 0.000000 0.000000
0.444794 0.000000 0.000000
0.708282 0.000000 0.000000
0.929810 0.000000 0.000000
1.000000 0.000000 0.000000
1.000000 0.000000 0.000000
1.000000 0.000000 0.000000
1.000000 0.000000 0.000000
0.000000 0.000000 0.000000
0.444794 0.000000 0.000000
0.708282 0.000000 0.000000
0.929810 0.000000 0.000000
1.000000 0.000000 0.000000
1.000000 0.000000 0.000000
1.000000 0.000000 0.000000
1.000000 0.000000 0.000000
0.000000 0.000000 0.000000
0.444794 0.000000 0.000000
0.708282 0.000000 0.000000
0.929810 0.000000 0.000000
1.000000 0.000000 0.000000
1.000000 0.000000 0.000000
1.000000 0.000000 0.000000
1.000000 0.000000 0.000000
0.000000 0.000000 0.000000
0.444794 0.000000 0.000000
0.708282 0.000000 0.000000
0.929810 0.000000 0.000000
1.000000 0.000000 0.000000
1.000000 0.000000 0.000000
1.000000 0.000000 0.000000
1.000000 0.000000 0.000000
0.000000 0.000000 0.000000
0.444794 0.000000 0.000000
0.708282 0.000000 0.000000
0.929810 0.000000 0.000000
1.000000 0.000000 0.000000
1.000000 0.000000 0.000000
1.000000 0.000000 0.000000
1.000000 0.000000 0.000000
0.000000 1.000000 0.000000
0.444794 1.000000 0.000000
0.708282 1.000000 0.000000
0.929810 1.000000 0.000000
1.000000 1.000000 0.000000
1.000000 1.000000 0.000000
1.000000 1.000000 0.000000
1.000000 1.000000 0.000000
0.000000 1.000000 0.000000
0.444794 1.000000 0.000000
0.708282 1.000000 0.000000
0.929810 1.000000 0.000000
1.000000 1.000000 0.000000
1.000000 1.000000 0.000000
1.000000 1.000000 0.000000
1.000000 1.000000 0.000000
0.000000 1.000000 0.000000
0.444794 1.000000 0.000000
0.708282 1.000000 0.000000
0.929810 1.000000 0.000000
1.000000 1.000000 0.000000
1.000000 1.000000 0.000000
1.000000 1.000000 0.000000
1.000000 1.000000 0.000000
0.000000 0.000000 0.052307
0.444794 0.000000 0.052307
0.708282 0.000000 0.052307
0.929810 0.000000 0.052307
1.000000 0.000000 0.052307
1.000000 0.000000 0.052307
1.000000 0.000000 0.052307
1.000000 0.000000 0.052307
0.000000 0.000000 0.052307
0.444794 0.000000 0.052307
0.708282 0.000000 0.052307
0.929810 0.000000 0.052307
1.000000 0.000000 0.052307
1.000000 0.000000 0.052307
1.000000 0.000000 0.052307
1.000000 0.000000 0.052307
0.000000 0.000000 0.052307
0.444794 0.000000 0.052307
0.708282 0.000000 0.052307
0.929810 0.000000 0.052307
1.000000 0.000000 0.052307
1.000000 0.000000 0.052307
1.000000 0.000000 0.052307
1.000000 0.000000 0.052307
0.000000 0.000000 0.052307
0.444794 0.000000 0.052307
0.708282 0.000000 0.052307
0.929810 0.000000 0.052307
1.000000 0.000000 0.052307
1.000000 0.000000 0.052307
1.000000 0.000000 0.052307
1.000000 0.000000 0.052307
0.000000 0.000000 0.052307
0.444794 0.000000 0.052307
0.708282 0.000000 0.052307
0.929810 0.000000 0.052307
1.000000 0.000000 0.052307
1.000000 0.000000 0.052307
1.000000 0.000000 0.052307
1.000000 0.000000 0.052307
0.000000 1.000000 0.052307
0.444794 1.000000 0.052307
0.708282 1.000000 0.052307
0.929810 1.000000 0.052307
1.000000 1.000000 0.052307
1.000000 1.000000 0.052307
1.000000 1.000000 0.052307
1.000000 1.000000 0.052307
0.000000 1.000000 0.052307
0.444794 1.000000 0.052307
0.708282 1.000000 0.052307
0.929810 1.000000 0.052307
1.000000 1.000000 0.052307
1.000000 1.000000 0.052307
1.000000 1.000000 0.052307
1.000000 1.000000 0.052307
0.000000 1.000000 0.052307
0.444794 1.000000 0.052307
0.708282 1.000000 0.052307
0.929810 1.000000 0.052307
1.000000 1.000000 0.052307
1.000000 1.000000 0.052307
1.000000 1.000000 0.052307
1.000000 1.000000 0.052307
0.000000 0.000000 0.305450
0.444794 0.000000 0.305450
0.708282 0.000000 0.305450
0.929810 0.000000 0.305450
1.000000 0.000000 0.305450
1.000000 0.000000 0.305450
1.000000 0.000000 0.305450
1.000000 0.000000 0.305450
0.000000 0.000000 0.305450
0.444794 0.000000 0.305450
0.708282 0.000000 0.305450
0.929810 0.000000 0.305450
1.000000 0.000000 0.305450
1.000000 0.000000 0.305450
1.000000 0.000000 0.305450
1.000000 0.000000 0.305450
0.000000 0.000000 0.305450
0.444794 0.000000 0.305450
0.708282 0.000000 0.305450
0.929810 0.000000 0.305450
1.000000 0.000000 0.305450
1.000000 0.000000 0.305450
1.000000 0.000000 0.305450
1.000000 0.000000 0.305450
0.000000 0.000000 0.305450
0.444794 0.000000 0.305450
0.708282 0.000000 0.305450
0.929810 0.000000 0.305450
1.000000 0.000000 0.305450
1.000000 0.000000 0.305450
1.000000 0.000000 0.305450
1.000000 0.000000 0.305450
0.000000 0.000000 0.305450
0.444794 0.000000 0.305450
0.708282 0.000000 0.305450
0.929810 0.000000 0.305450
1.000000 0.000000 0.305450
1.000000 0.000000 0.305450
1.000000 0.000000 0.305450
1.000000 0.000000 0.305450
0.000000 1.000000 0.305450
0.444794 1.000000 0.305450
0.708282 1.000000 0.305450
0.929810 1.000000 0.305450
1.000000 1.000000 0.305450
1.000000 1.000000 0.305450
1.000000 1.000000 0.305450
1.000000 1.000000 0.305450
0.000000 1.000000 0.305450
0.444794 1.000000 0.305450
0.708282 1.000000 0.305450
0.929810 1.000000 0.305450
1.000000 1.000000 0.305450
1.000000 1.000000 0.305450
1.000000 1.000000 0.305450
1.000000 1.000000 0.305450
0.000000 1.000000 0.305450
0.444794 1.000000 0.305450
0.708282 1.000000 0.305450
0.929810 1.000000 0.305450
1.000000 1.000000 0.305450
1.000000 1.000000 0.305450
1.000000 1.000000 0.305450
1.000000 1.000000 0.305450
0.000000 0.000000 0.670563
0.444794 0.000000 0.670563
0.708282 0.000000 0.670563
0.929810 0.000000 0.670563
1.000000 0.000000 0.670563
1.000000 0.000000 0.670563
1.000000 0.000000 0.670563
1.000000 0.000000 0.670563
0.000000 0.000000 0.670563
0.444794 0.000000 0.670563
0.708282 0.000000 0.670563
0.929810 0.000000 0.670563
1.000000 0.000000 0.670563
1.000000 0.000000 0.670563
1.000000 0.000000 0.670563
1.000000 0.000000 0.670563
0.000000 0.000000 0.670563
0.444794 0.000000 0.670563
0.708282 0.000000 0.670563
0.929810 0.000000 0.670563
1.000000 0.000000 0.670563
1.000000 0.000000 0.670563
1.000000 0.000000 0.670563
1.000000 0.000000 0.670563
0.000000 0.000000 0.670563
0.444794 0.000000 0.670563
0.708282 0.000000 0.670563
0.929810 0.000000 0.670563
1.000000 0.000000 0.670563
1.000000 0.000000 0.670563
1.000000 0.000000 0.670563
1.000000 0.000000 0.670563
0.000000 0.000000 0.670563
0.444794 0.000000 0.670563
0.708282 0.000000 0.670563
0.929810 0.000000 0.670563
1.000000 0.000000 0.670563
1.000000 0.000000 0.670563
1.000000 0.000000 0.670563
1.000000 0.000000 0.670563
0.000000 1.000000 0.670563
0.444794 1.000000 0.670563
0.708282 1.000000 0.670563
0.929810 1.000000 0.670563
1.000000 1.000000 0.670563
1.000000 1.000000 0.670563
1.000000 1.000000 0.670563
1.000000 1.000000 0.670563
0.000000 1.000000 0.670563
0.444794 1.000000 0.670563
0.708282 1.000000 0.670563
0.929810 1.000000 0.670563
1.000000 1.000000 0.670563
1.000000 1.000000 0.670563
1.000000 1.000000 0.670563
1.000000 1.000000 0.670563
0.000000 1.000000 0.670563
0.444794 1.000000 0.670563
0.708282 1.000000 0.670563
0.929810 1.000000 0.670563
1.000000 1.000000 0.670563
1.000000 1.000000 0.670563
1.000000 1.000000 0.670563
1.000000 1.000000 0.670563
