Assignment 1 - Ryan Yee - 100785620/luts/bloodCC.CUBE
#Created by: Adobe Photoshop Export Color Lookup Plugin
TITLE "Untitled-1"
#LUT size
LUT_3D_SIZE 5
#data domain
#LUT data points
DOMAIN_MIN 0.000000 0.000000 0.000000
DOMAIN_MAX 0.903226 0.903226 0.903226
0.000000 0.000000 0.000000
0.647552 0.000000 0.000000
1.000000 0.000000 0.000000
1.000000 0.000000 0.000000
1.000000 0.000000 0.000000
0.000000 0.000000 0.000000
0.647552 0.000000 0.000000
1.000000 0.000000 0.000000
1.000000 0.000000 0.000000
1.000000 0.000000 0.000000
0.000000 0.000000 0.000000
0.647552 0.000000 0.000000
1.000000 0.000000 0.000000
1.000000 0.000000 0.000000
1.000000 0.000000 0.000000
0.000000 1.000000 0.000000
0.647552 1.000000 0.000000
1.000000 1.000000 0.000000
1.000000 1.000000 0.000000
1.000000 1.000000 0.000000
0.000000 1.000000 0.000000
0.647552 1.000000 0.000000
1.000000 1.000000 0.000000
1.000000 1.000000 0.000000
1.000000 1.000000 0.000000
0.000000 0.000000 0.000000
0.647552 0.000000 0.000000
1.000000 0.000000 0.000000
1.000000 0.000000 0.000000
1.000000 0.000000 0.000000
0.000000 0.000000 0.000000
0.647552 0.000000 0.000000
1.000000 0.000000 0.000000
1.000000 0.000000 0.000000
1.000000 0.000000 0.000000
0.000000 0.000000 0.000000
0.647552 0.000000 0.000000
1.000000 0.000000 0.000000
1.000000 0.000000 0.000000
1.000000 0.000000 0.000000
0.000000 1.000000 0.000000
0.647552 1.000000 0.000000
1.000000 1.000000 0.000000
1.000000 1.000000 0.000000
1.000000 1.000000 0.000000
0.000000 1.000000 0.000000
0.647552 1.000000 0.000000
1.000000 1.000000 0.000000
1.000000 1.000000 0.000000
1.000000 1.000000 0.000000
0.000000 0.000000 0.000000
0.647552 0.000000 0.000000
1.000000 0.000000 0.000000
1.000000 0.000000 0.000000
1.000000 0.000000 0.000000
0.000000 0.000000 0.000000
0.647552 0.000000 0.000000
1.000000 0.000000 0.000000
1.000000 0.000000 0.000000
1.000000 0.000000 0.000000
0.000000 0.000000 0.000000
0.647552 0.000000 0.000000
1.000000 0.000000 0.000000
1.000000 0.000000 0.000000
1.000000 0.000000 0.000000
0.000000 1.000000 0.000000
0.647552 1.000000 0.000000
1.000000 1.000000 0.000000
1.000000 1.000000 0.000000
1.000000 1.000000 0.000000
0.000000 1.000000 0.000000
0.647552 1.000000 0.000000
1.000000 1.000000 0.000000
1.000000 1.000000 0.000000
1.000000 1.000000 0.000000
0.000000 0.000000 0.102142
0.647552 0.000000 0.102142
1.000000 0.000000 0.102142
1.000000 0.000000 0.102142
1.000000 0.000000 0.102142
0.000000 0.000000 0.102142
0.647552 0.000000 0.102142
1.000000 0.000000 0.102142
1.000000 0.000000 0.102142
1.000000 0.000000 0.102142
0.000000 0.000000 0.102142
0.647552 0.000000 0.102142
1.000000 0.000000 0.102142
1.000000 0.000000 0.102142
1.000000 0.000000 0.102142
0.000000 1.000000 0.102142
0.647552 1.000000 0.102142
1.000000 1.000000 0.102142
1.000000 1.000000 0.102142
1.000000 1.000000 0.102142
0.000000 1.000000 0.102142
0.647552 1.000000 0.102142
1.000000 1.000000 0.102142
1.000000 1.000000 0.102142
1.000000 1.000000 0.102142
0.000000 0.000000 0.670563
0.647552 0.000000 0.670563
1.000000 0.000000 0.670563
1.000000 0.000000 0.670563
1.000000 0.000000 0.670563
0.000000 0.000000 0.670563
0.647552 0.000000 0.670563
1.000000 0.000000 0.670563
1.000000 0.000000 0.670563
1.000000 0.000000 0.670563
0.000000 0.000000 0.670563
0.647552 0.000000 0.670563
1.000000 0.000000 0.670563
1.000000 0.000000 0.670563
1.000000 0.000000 0.670563
0.000000 1.000000 0.670563
0.647552 1.000000 0.670563
1.000000 1.000000 0.670563
1.000000 1.000000 0.670563
1.000000 1.000000 0.670563
0.000000 1.000000 0.670563
0.647552 1.000000 0.670563
1.000000 1.000000 0.670563
1.000000 1.000000 0.670563
1.000000 1.000000 0.670563
