Assignment 1 - Ryan Yee - 100785620/luts/coolCC.CUBE
#Created by: Adobe Photoshop Export Color Lookup Plugin
TITLE "Untitled-1"
#LUT size
LUT_3D_SIZE 5
#data domain
#LUT data points
DOMAIN_MIN 0.000000 0.000000 0.000000
DOMAIN_MAX 0.903226 0.903226 0.903226
0.000000 0.000000 0.000000
0.022491 0.000000 0.000000
0.203400 0.000000 0.000000
0.481567 0.000000 0.000000
0.831268 0.000000 0.000000
0.000000 0.046570 0.000000
0.022491 0.046570 0.000000
0.203400 0.046570 0.000000
0.481567 0.046570 0.000000
0.831268 0.046570 0.000000
0.000000 0.252045 0.000000
0.022491 0.252045 0.000000
0.203400 0.252045 0.000000
0.481567 0.252045 0.000000
0.831268 0.252045 0.000000
0.000000 0.582062 0.000000
0.022491 0.582062 0.000000
0.203400 0.582062 0.000000
0.481567 0.582062 0.000000
0.831268 0.582062 0.000000
0.000000 1.000000 0.000000
0.022491 1.000000 0.000000
0.203400 1.000000 0.000000
0.481567 1.000000 0.000000
0.831268 1.000000 0.000000
0.000000 0.000000 0.550018
0.022491 0.000000 0.550018
0.203400 0.000000 0.550018
0.481567 0.000000 0.550018
0.831268 0.000000 0.550018
0.000000 0.046570 0.550018
0.022491 0.046570 0.550018
0.203400 0.046570 0.550018
0.481567 0.046570 0.550018
0.831268 0.046570 0.550018
0.000000 0.252045 0.550018
0.022491 0.252045 0.550018
0.203400 0.252045 0.550018
0.481567 0.252045 0.550018
0.831268 0.252045 0.550018
0.000000 0.582062 0.550018
0.022491 0.582062 0.550018
0.203400 0.582062 0.550018
0.481567 0.582062 0.550018
0.831268 0.582062 0.550018
0.000000 1.000000 0.550018
0.022491 1.000000 0.550018
0.203400 1.000000 0.550018
0.481567 1.000000 0.550018
0.831268 1.000000 0.550018
0.000000 0.000000 0.822998
0.022491 0.000000 0.822998
0.203400 0.000000 0.822998
0.481567 0.000000 0.822998
0.831268 0.000000 0.822998
0.000000 0.046570 0.822998
0.022491 0.046570 0.822998
0.203400 0.046570 0.822998
0.481567 0.046570 0.822998
0.831268 0.046570 0.822998
0.000000 0.252045 0.822998
0.022491 0.252045 0.822998
0.203400 0.252045 0.822998
0.481567 0.252045 0.822998
0.831268 0.252045 0.822998
0.000000 0.582062 0.822998
0.022491 0.582062 0.822998
0.203400 0.582062 0.822998
0.481567 0.582062 0.822998
0.831268 0.582062 0.822998
0.000000 1.000000 0.822998
0.022491 1.000000 0.822998
0.203400 1.000000 0.822998
0.481567 1.000000 0.822998
0.831268 1.000000 0.822998
0.000000 0.000000 1.000000
0.022491 0.000000 1.000000
0.203400 0.000000 1.000000
0.481567 0.000000 1.000000
0.831268 0.000000 1.000000
0.000000 0.046570 1.000000
0.022491 0.046570 1.000000
0.203400 0.046570 1.000000
0.481567 0.046570 1.000000
0.831268 0.046570 1.000000
0.000000 0.252045 1.000000
0.022491 0.252045 1.000000
0.203400 0.252045 1.000000
0.481567 0.252045 1.000000
0.831268 0.252045 1.000000
0.000000 0.582062 1.000000
0.022491 0.582062 1.000000
0.203400 0.582062 1.000000
0.481567 0.582062 1.000000
0.831268 0.582062 1.000000
0.000000 1.000000 1.000000
0.022491 1.000000 1.000000
0.203400 1.000000 1.000000
0.481567 1.000000 1.000000
0.831268 1.000000 1.000000
0.000000 0.000000 1.000000
0.022491 0.000000 1.000000
0.203400 0.000000 1.000000
0.481567 0.000000 1.000000
0.831268 0.000000 1.000000
0.000000 0.046570 1.000000
0.022491 0.046570 1.000000
0.203400 0.046570 1.000000
0.481567 0.046570 1.000000
0.831268 0.046570 1.000000
0.000000 0.252045 1.000000
0.022491 0.252045 1.000000
0.203400 0.252045 1.000000
0.481567 0.252045 1.000000
0.831268 0.252045 1.000000
0.000000 0.582062 1.000000
0.022491 0.582062 1.000000
0.203400 0.582062 1.000000
0.481567 0.582062 1.000000
0.831268 0.582062 1.000000
0.000000 1.000000 1.000000
0.022491 1.000000 1.000000
0.203400 1.000000 1.000000
0.481567 1.000000 1.000000
0.831268 1.000000 1.000000
