Assignment 1 - Ryan Yee - 100785620/luts/coolCC.CUBE
#Created by: Adobe Photoshop Export Color Lookup Plugin
TITLE "Untitled-1"
#LUT size
LUT_3D_SIZE 32
#data domain
DOMAIN_MIN 0.0 0.0 0.0
DOMAIN_MAX 1.0 1.0 1.0
#LUT data points
0.000000 0.000000 0.000000
0.000000 0.000000 0.000000
0.000000 0.000000 0.000000
0.000000 0.000000 0.000000
0.000000 0.000000 0.000000
0.000336 0.000000 0.000000
0.008636 0.000000 0.000000
0.022491 0.000000 0.000000
0.040192 0.000000 0.000000
0.061218 0.000000 0.000000
0.084869 0.000000 0.000000
0.111237 0.000000 0.000000
0.139832 0.000000 0.000000
0.170532 0.000000 0.000000
0.203400 0.000000 0.000000
0.237915 0.000000 0.000000
0.274536 0.000000 0.000000
0.312836 0.000000 0.000000
0.352539 0.000000 0.000000
0.394135 0.000000 0.000000
0.436951 0.000000 0.000000
0.481567 0.000000 0.000000
0.527588 0.000000 0.000000
0.574768 0.000000 0.000000
0.623596 0.000000 0.000000
0.673523 0.000000 0.000000
0.724884 0.000000 0.000000
0.777466 0.000000 0.000000
0.831268 0.000000 0.000000
0.886444 0.000000 0.000000
0.942474 0.000000 0.000000
1.000000 0.000000 0.000000
0.000000 0.000000 0.000000
0.000000 0.000000 0.000000
0.000000 0.000000 0.000000
0.000000 0.000000 0.000000
0.000000 0.000000 0.000000
0.000336 0.000000 0.000000
0.008636 0.000000 0.000000
0.022491 0.000000 0.000000
0.040192 0.000000 0.000000
0.061218 0.000000 0.000000
0.084869 0.000000 0.000000
0.111237 0.000000 0.000000
0.139832 0.000000 0.000000
0.170532 0.000000 0.000000
0.203400 0.000000 0.000000
0.237915 0.000000 0.000000
0.274536 0.000000 0.000000
0.312836 0.000000 0.000000
0.352539 0.000000 0.000000
0.394135 0.000000 0.000000
0.436951 0.000000 0.000000
0.481567 0.000000 0.000000
0.527588 0.000000 0.000000
0.574768 0.000000 0.000000
0.623596 0.000000 0.000000
0.673523 0.000000 0.000000
0.724884 0.000000 0.000000
0.777466 0.000000 0.000000
0.831268 0.000000 0.000000
0.886444 0.000000 0.000000
0.942474 0.000000 0.000000
1.000000 0.000000 0.000000
0.000000 0.000000 0.000000
0.000000 0.000000 0.000000
0.000000 0.000000 0.000000
0.000000 0.000000 0.000000
0.000000 0.000000 0.000000
0.000336 0.000000 0.000000
0.008636 0.000000 0.000000
0.022491 0.000000 0.000000
0.040192 0.000000 0.000000
0.061218 0.000000 0.000000
0.084869 0.000000 0.000000
0.111237 0.000000 0.000000
0.139832 0.000000 0.000000
0.170532 0.000000 0.000000
0.203400 0.000000 0.000000
0.237915 0.000000 0.000000
0.274536 0.000000 0.000000
0.312836 0.000000 0.000000
0.352539 0.000000 0.000000
0.394135 0.000000 0.000000
0.436951 0.000000 0.000000
0.481567 0.000000 0.000000
0.527588 0.000000 0.000000
0.574768 0.000000 0.000000
0.623596 0.000000 0.000000
0.673523 0.000000 0.000000
0.724884 0.000000 0.000000
0.777466 0.000000 0.000000
0.831268 0.000000 0.000000
0.886444 0.000000 0.000000
0.942474 0.000000 0.000000
1.000000 0.000000 0.000000
0.000000 0.000244 0.000000
0.000000 0.000244 0.000000
0.000000 0.000244 0.000000
0.000000 0.000244 0.000000
0.000000 0.000244 0.000000
0.000336 0.000244 0.000000
0.008636 0.000244 0.000000
0.022491 0.000244 0.000000
0.040192 0.000244 0.000000
0.061218 0.000244 0.000000
0.084869 0.000244 0.000000
0.111237 0.000244 0.000000
0.139832 0.000244 0.000000
0.170532 0.000244 0.000000
0.203400 0.000244 0.000000
0.237915 0.000244 0.000000
0.274536 0.000244 0.000000
0.312836 0.000244 0.000000
0.352539 0.000244 0.000000
0.394135 0.000244 0.000000
0.436951 0.000244 0.000000
0.481567 0.000244 0.000000
0.527588 0.000244 0.000000
0.574768 0.000244 0.000000
0.623596 0.000244 0.000000
0.673523 0.000244 0.000000
0.724884 0.000244 0.000000
0.777466 0.000244 0.000000
0.831268 0.000244 0.000000
0.886444 0.000244 0.000000
0.942474 0.000244 0.000000
1.000000 0.000244 0.000000
0.000000 0.005432 0.000000
0.000000 0.005432 0.000000
0.000000 0.005432 0.000000
0.000000 0.005432 0.000000
0.000000 0.005432 0.000000
0.000336 0.005432 0.000000
0.008636 0.005432 0.000000
0.022491 0.005432 0.000000
0.040192 0.005432 0.000000
0.061218 0.005432 0.000000
0.084869 0.005432 0.000000
0.111237 0.005432 0.000000
0.139832 0.005432 0.000000
0.170532 0.005432 0.000000
0.203400 0.005432 0.000000
0.237915 0.005432 0.000000
0.274536 0.005432 0.000000
0.312836 0.005432 0.000000
0.352539 0.005432 0.000000
0.394135 0.005432 0.000000
0.436951 0.005432 0.000000
0.481567 0.005432 0.000000
0.527588 0.005432 0.000000
0.574768 0.005432 0.000000
0.623596 0.005432 0.000000
0.673523 0.005432 0.000000
0.724884 0.005432 0.000000
0.777466 0.005432 0.000000
0.831268 0.005432 0.000000
0.886444 0.005432 0.000000
0.942474 0.005432 0.000000
1.000000 0.005432 0.000000
0.000000 0.015289 0.000000
0.000000 0.015289 0.000000
0.000000 0.015289 0.000000
0.000000 0.015289 0.000000
0.000000 0.015289 0.000000
0.000336 0.015289 0.000000
0.008636 0.015289 0.000000
0.022491 0.015289 0.000000
0.040192 0.015289 0.000000
0.061218 0.015289 0.000000
0.084869 0.015289 0.000000
0.111237 0.015289 0.000000
0.139832 0.015289 0.000000
0.170532 0.015289 0.000000
0.203400 0.015289 0.000000
0.237915 0.015289 0.000000
0.274536 0.015289 0.000000
0.312836 0.015289 0.000000
0.352539 0.015289 0.000000
0.394135 0.015289 0.000000
0.436951 0.015289 0.000000
0.481567 0.015289 0.000000
0.527588 0.015289 0.000000
0.574768 0.015289 0.000000
0.623596 0.015289 0.000000
0.673523 0.015289 0.000000
0.724884 0.015289 0.000000
0.777466 0.015289 0.000000
0.831268 0.015289 0.000000
0.886444 0.015289 0.000000
0.942474 0.015289 0.000000
1.000000 0.015289 0.000000
0.000000 0.029114 0.000000
0.000000 0.029114 0.000000
0.000000 0.029114 0.000000
0.000000 0.029114 0.000000
0.000000 0.029114 0.000000
0.000336 0.029114 0.000000
0.008636 0.029114 0.000000
0.022491 0.029114 0.000000
0.040192 0.029114 0.000000
0.061218 0.029114 0.000000
0.084869 0.029114 0.000000
0.111237 0.029114 0.000000
0.139832 0.029114 0.000000
0.170532 0.029114 0.000000
0.203400 0.029114 0.000000
0.237915 0.029114 0.000000
0.274536 0.029114 0.000000
0.312836 0.029114 0.000000
0.352539 0.029114 0.000000
0.394135 0.029114 0.000000
0.436951 0.029114 0.000000
0.481567 0.029114 0.000000
0.527588 0.029114 0.000000
0.574768 0.029114 0.000000
0.623596 0.029114 0.000000
0.673523 0.029114 0.000000
0.724884 0.029114 0.000000
0.777466 0.029114 0.000000
0.831268 0.029114 0.000000
0.886444 0.029114 0.000000
0.942474 0.029114 0.000000
1.000000 0.029114 0.000000
0.000000 0.046570 0.000000
0.000000 0.046570 0.000000
0.000000 0.046570 0.000000
0.000000 0.046570 0.000000
0.000000 0.046570 0.000000
0.000336 0.046570 0.000000
0.008636 0.046570 0.000000
0.022491 0.046570 0.000000
0.040192 0.046570 0.000000
0.061218 0.046570 0.000000
0.084869 0.046570 0.000000
0.111237 0.046570 0.000000
0.139832 0.046570 0.000000
0.170532 0.046570 0.000000
0.203400 0.046570 0.000000
0.237915 0.046570 0.000000
0.274536 0.046570 0.000000
0.312836 0.046570 0.000000
0.352539 0.046570 0.000000
0.394135 0.046570 0.000000
0.436951 0.046570 0.000000
0.481567 0.046570 0.000000
0.527588 0.046570 0.000000
0.574768 0.046570 0.000000
0.623596 0.046570 0.000000
0.673523 0.046570 0.000000
0.724884 0.046570 0.000000
0.777466 0.046570 0.000000
0.831268 0.046570 0.000000
0.886444 0.046570 0.000000
0.942474 0.046570 0.000000
1.000000 0.046570 0.000000
0.000000 0.067261 0.000000
0.000000 0.067261 0.000000
0.000000 0.067261 0.000000
0.000000 0.067261 0.000000
0.000000 0.067261 0.000000
0.000336 0.067261 0.000000
0.008636 0.067261 0.000000
0.022491 0.067261 0.000000
0.040192 0.067261 0.000000
0.061218 0.067261 0.000000
0.084869 0.067261 0.000000
0.111237 0.067261 0.000000
0.139832 0.067261 0.000000
0.170532 0.067261 0.000000
0.203400 0.067261 0.000000
0.237915 0.067261 0.000000
0.274536 0.067261 0.000000
0.312836 0.067261 0.000000
0.352539 0.067261 0.000000
0.394135 0.067261 0.000000
0.436951 0.067261 0.000000
0.481567 0.067261 0.000000
0.527588 0.067261 0.000000
0.574768 0.067261 0.000000
0.623596 0.067261 0.000000
0.673523 0.067261 0.000000
0.724884 0.067261 0.000000
0.777466 0.067261 0.000000
0.831268 0.067261 0.000000
0.886444 0.067261 0.000000
0.942474 0.067261 0.000000
1.000000 0.067261 0.000000
0.000000 0.091034 0.000000
0.000000 0.091034 0.000000
0.000000 0.091034 0.000000
0.000000 0.091034 0.000000
0.000000 0.091034 0.000000
0.000336 0.091034 0.000000
0.008636 0.091034 0.000000
0.022491 0.091034 0.000000
0.040192 0.091034 0.000000
0.061218 0.091034 0.000000
0.084869 0.091034 0.000000
0.111237 0.091034 0.000000
0.139832 0.091034 0.000000
0.170532 0.091034 0.000000
0.203400 0.091034 0.000000
0.237915 0.091034 0.000000
0.274536 0.091034 0.000000
0.312836 0.091034 0.000000
0.352539 0.091034 0.000000
0.394135 0.091034 0.000000
0.436951 0.091034 0.000000
0.481567 0.091034 0.000000
0.527588 0.091034 0.000000
0.574768 0.091034 0.000000
0.623596 0.091034 0.000000
0.673523 0.091034 0.000000
0.724884 0.091034 0.000000
0.777466 0.091034 0.000000
0.831268 0.091034 0.000000
0.886444 0.091034 0.000000
0.942474 0.091034 0.000000
1.000000 0.091034 0.000000
0.000000 0.117737 0.000000
0.000000 0.117737 0.000000
0.000000 0.117737 0.000000
0.000000 0.117737 0.000000
0.000000 0.117737 0.000000
0.000336 0.117737 0.000000
0.008636 0.117737 0.000000
0.022491 0.117737 0.000000
0.040192 0.117737 0.000000
0.061218 0.117737 0.000000
0.084869 0.117737 0.000000
0.111237 0.117737 0.000000
0.139832 0.117737 0.000000
0.170532 0.117737 0.000000
0.203400 0.117737 0.000000
0.237915 0.117737 0.000000
0.274536 0.117737 0.000000
0.312836 0.117737 0.000000
0.352539 0.117737 0.000000
0.394135 0.117737 0.000000
0.436951 0.117737 0.000000
0.481567 0.117737 0.000000
0.527588 0.117737 0.000000
0.574768 0.117737 0.000000
0.623596 0.117737 0.000000
0.673523 0.117737 0.000000
0.724884 0.117737 0.000000
0.777466 0.117737 0.000000
0.831268 0.117737 0.000000
0.886444 0.117737 0.000000
0.942474 0.117737 0.000000
1.000000 0.117737 0.000000
0.000000 0.147308 0.000000
0.000000 0.147308 0.000000
0.000000 0.147308 0.000000
0.000000 0.147308 0.000000
0.000000 0.147308 0.000000
0.000336 0.147308 0.000000
0.008636 0.147308 0.000000
0.022491 0.147308 0.000000
0.040192 0.147308 0.000000
0.061218 0.147308 0.000000
0.084869 0.147308 0.000000
0.111237 0.147308 0.000000
0.139832 0.147308 0.000000
0.170532 0.147308 0.000000
0.203400 0.147308 0.000000
0.237915 0.147308 0.000000
0.274536 0.147308 0.000000
0.312836 0.147308 0.000000
0.352539 0.147308 0.000000
0.394135 0.147308 0.000000
0.436951 0.147308 0.000000
0.481567 0.147308 0.000000
0.527588 0.147308 0.000000
0.574768 0.147308 0.000000
0.623596 0.147308 0.000000
0.673523 0.147308 0.000000
0.724884 0.147308 0.000000
0.777466 0.147308 0.000000
0.831268 0.147308 0.000000
0.886444 0.147308 0.000000
0.942474 0.147308 0.000000
1.000000 0.147308 0.000000
0.000000 0.179688 0.000000
0.000000 0.179688 0.000000
0.000000 0.179688 0.000000
0.000000 0.179688 0.000000
0.000000 0.179688 0.000000
0.000336 0.179688 0.000000
0.008636 0.179688 0.000000
0.022491 0.179688 0.000000
0.040192 0.179688 0.000000
0.061218 0.179688 0.000000
0.084869 0.179688 0.000000
0.111237 0.179688 0.000000
0.139832 0.179688 0.000000
0.170532 0.179688 0.000000
0.203400 0.179688 0.000000
0.237915 0.179688 0.000000
0.274536 0.179688 0.000000
0.312836 0.179688 0.000000
0.352539 0.179688 0.000000
0.394135 0.179688 0.000000
0.436951 0.179688 0.000000
0.481567 0.179688 0.000000
0.527588 0.179688 0.000000
0.574768 0.179688 0.000000
0.623596 0.179688 0.000000
0.673523 0.179688 0.000000
0.724884 0.179688 0.000000
0.777466 0.179688 0.000000
0.831268 0.179688 0.000000
0.886444 0.179688 0.000000
0.942474 0.179688 0.000000
1.000000 0.179688 0.000000
0.000000 0.214569 0.000000
0.000000 0.214569 0.000000
0.000000 0.214569 0.000000
0.000000 0.214569 0.000000
0.000000 0.214569 0.000000
0.000336 0.214569 0.000000
0.008636 0.214569 0.000000
0.022491 0.214569 0.000000
0.040192 0.214569 0.000000
0.061218 0.214569 0.000000
0.084869 0.214569 0.000000
0.111237 0.214569 0.000000
0.139832 0.214569 0.000000
0.170532 0.214569 0.000000
0.203400 0.214569 0.000000
0.237915 0.214569 0.000000
0.274536 0.214569 0.000000
0.312836 0.214569 0.000000
0.352539 0.214569 0.000000
0.394135 0.214569 0.000000
0.436951 0.214569 0.000000
0.481567 0.214569 0.000000
0.527588 0.214569 0.000000
0.574768 0.214569 0.000000
0.623596 0.214569 0.000000
0.673523 0.214569 0.000000
0.724884 0.214569 0.000000
0.777466 0.214569 0.000000
0.831268 0.214569 0.000000
0.886444 0.214569 0.000000
0.942474 0.214569 0.000000
1.000000 0.214569 0.000000
0.000000 0.252045 0.000000
0.000000 0.252045 0.000000
0.000000 0.252045 0.000000
0.000000 0.252045 0.000000
0.000000 0.252045 0.000000
0.000336 0.252045 0.000000
0.008636 0.252045 0.000000
0.022491 0.252045 0.000000
0.040192 0.252045 0.000000
0.061218 0.252045 0.000000
0.084869 0.252045 0.000000
0.111237 0.252045 0.000000
0.139832 0.252045 0.000000
0.170532 0.252045 0.000000
0.203400 0.252045 0.000000
0.237915 0.252045 0.000000
0.274536 0.252045 0.000000
0.312836 0.252045 0.000000
0.352539 0.252045 0.000000
0.394135 0.252045 0.000000
0.436951 0.252045 0.000000
0.481567 0.252045 0.000000
0.527588 0.252045 0.000000
0.574768 0.252045 0.000000
0.623596 0.252045 0.000000
0.673523 0.252045 0.000000
0.724884 0.252045 0.000000
0.777466 0.252045 0.000000
0.831268 0.252045 0.000000
0.886444 0.252045 0.000000
0.942474 0.252045 0.000000
1.000000 0.252045 0.000000
0.000000 0.292023 0.000000
0.000000 0.292023 0.000000
0.000000 0.292023 0.000000
0.000000 0.292023 0.000000
0.000000 0.292023 0.000000
0.000336 0.292023 0.000000
0.008636 0.292023 0.000000
0.022491 0.292023 0.000000
0.040192 0.292023 0.000000
0.061218 0.292023 0.000000
0.084869 0.292023 0.000000
0.111237 0.292023 0.000000
0.139832 0.292023 0.000000
0.170532 0.292023 0.000000
0.203400 0.292023 0.000000
0.237915 0.292023 0.000000
0.274536 0.292023 0.000000
0.312836 0.292023 0.000000
0.352539 0.292023 0.000000
0.394135 0.292023 0.000000
0.436951 0.292023 0.000000
0.481567 0.292023 0.000000
0.527588 0.292023 0.000000
0.574768 0.292023 0.000000
0.623596 0.292023 0.000000
0.673523 0.292023 0.000000
0.724884 0.292023 0.000000
0.777466 0.292023 0.000000
0.831268 0.292023 0.000000
0.886444 0.292023 0.000000
0.942474 0.292023 0.000000
1.000000 0.292023 0.000000
0.000000 0.334717 0.000000
0.000000 0.334717 0.000000
0.000000 0.334717 0.000000
0.000000 0.334717 0.000000
0.000000 0.334717 0.000000
0.000336 0.334717 0.000000
0.008636 0.334717 0.000000
0.022491 0.334717 0.000000
0.040192 0.334717 0.000000
0.061218 0.334717 0.000000
0.084869 0.334717 0.000000
0.111237 0.334717 0.000000
0.139832 0.334717 0.000000
0.170532 0.334717 0.000000
0.203400 0.334717 0.000000
0.237915 0.334717 0.000000
0.274536 0.334717 0.000000
0.312836 0.334717 0.000000
0.352539 0.334717 0.000000
0.394135 0.334717 0.000000
0.436951 0.334717 0.000000
0.481567 0.334717 0.000000
0.527588 0.334717 0.000000
0.574768 0.334717 0.000000
0.623596 0.334717 0.000000
0.673523 0.334717 0.000000
0.724884 0.334717 0.000000
0.777466 0.334717 0.000000
0.831268 0.334717 0.000000
0.886444 0.334717 0.000000
0.942474 0.334717 0.000000
1.000000 0.334717 0.000000
0.000000 0.379547 0.000000
0.000000 0.379547 0.000000
0.000000 0.379547 0.000000
0.000000 0.379547 0.000000
0.000000 0.379547 0.000000
0.000336 0.379547 0.000000
0.008636 0.379547 0.000000
0.022491 0.379547 0.000000
0.040192 0.379547 0.000000
0.061218 0.379547 0.000000
0.084869 0.379547 0.000000
0.111237 0.379547 0.000000
0.139832 0.379547 0.000000
0.170532 0.379547 0.000000
0.203400 0.379547 0.000000
0.237915 0.379547 0.000000
0.274536 0.379547 0.000000
0.312836 0.379547 0.000000
0.352539 0.379547 0.000000
0.394135 0.379547 0.000000
0.436951 0.379547 0.000000
0.481567 0.379547 0.000000
0.527588 0.379547 0.000000
0.574768 0.379547 0.000000
0.623596 0.379547 0.000000
0.673523 0.379547 0.000000
0.724884 0.379547 0.000000
0.777466 0.379547 0.000000
0.831268 0.379547 0.000000
0.886444 0.379547 0.000000
0.942474 0.379547 0.000000
1.000000 0.379547 0.000000
0.000000 0.426697 0.000000
0.000000 0.426697 0.000000
0.000000 0.426697 0.000000
0.000000 0.426697 0.000000
0.000000 0.426697 0.000000
0.000336 0.426697 0.000000
0.008636 0.426697 0.000000
0.022491 0.426697 0.000000
0.040192 0.426697 0.000000
0.061218 0.426697 0.000000
0.084869 0.426697 0.000000
0.111237 0.426697 0.000000
0.139832 0.426697 0.000000
0.170532 0.426697 0.000000
0.203400 0.426697 0.000000
0.237915 0.426697 0.000000
0.274536 0.426697 0.000000
0.312836 0.426697 0.000000
0.352539 0.426697 0.000000
0.394135 0.426697 0.000000
0.436951 0.426697 0.000000
0.481567 0.426697 0.000000
0.527588 0.426697 0.000000
0.574768 0.426697 0.000000
0.623596 0.426697 0.000000
0.673523 0.426697 0.000000
0.724884 0.426697 0.000000
0.777466 0.426697 0.000000
0.831268 0.426697 0.000000
0.886444 0.426697 0.000000
0.942474 0.426697 0.000000
1.000000 0.426697 0.000000
0.000000 0.476166 0.000000
0.000000 0.476166 0.000000
0.000000 0.476166 0.000000
0.000000 0.476166 0.000000
0.000000 0.476166 0.000000
0.000336 0.476166 0.000000
0.008636 0.476166 0.000000
0.022491 0.476166 0.000000
0.040192 0.476166 0.000000
0.061218 0.476166 0.000000
0.084869 0.476166 0.000000
0.111237 0.476166 0.000000
0.139832 0.476166 0.000000
0.170532 0.476166 0.000000
0.203400 0.476166 0.000000
0.237915 0.476166 0.000000
0.274536 0.476166 0.000000
0.312836 0.476166 0.000000
0.352539 0.476166 0.000000
0.394135 0.476166 0.000000
0.436951 0.476166 0.000000
0.481567 0.476166 0.000000
0.527588 0.476166 0.000000
0.574768 0.476166 0.000000
0.623596 0.476166 0.000000
0.673523 0.476166 0.000000
0.724884 0.476166 0.000000
0.777466 0.476166 0.000000
0.831268 0.476166 0.000000
0.886444 0.476166 0.000000
0.942474 0.476166 0.000000
1.000000 0.476166 0.000000
0.000000 0.528046 0.000000
0.000000 0.528046 0.000000
0.000000 0.528046 0.000000
0.000000 0.528046 0.000000
0.000000 0.528046 0.000000
0.000336 0.528046 0.000000
0.008636 0.528046 0.000000
0.022491 0.528046 0.000000
0.040192 0.528046 0.000000
0.061218 0.528046 0.000000
0.084869 0.528046 0.000000
0.111237 0.528046 0.000000
0.139832 0.528046 0.000000
0.170532 0.528046 0.000000
0.203400 0.528046 0.000000
0.237915 0.528046 0.000000
0.274536 0.528046 0.000000
0.312836 0.528046 0.000000
0.352539 0.528046 0.000000
0.394135 0.528046 0.000000
0.436951 0.528046 0.000000
0.481567 0.528046 0.000000
0.527588 0.528046 0.000000
0.574768 0.528046 0.000000
0.623596 0.528046 0.000000
0.673523 0.528046 0.000000
0.724884 0.528046 0.000000
0.777466 0.528046 0.000000
0.831268 0.528046 0.000000
0.886444 0.528046 0.000000
0.942474 0.528046 0.000000
1.000000 0.528046 0.000000
0.000000 0.582062 0.000000
0.000000 0.582062 0.000000
0.000000 0.582062 0.000000
0.000000 0.582062 0.000000
0.000000 0.582062 0.000000
0.000336 0.582062 0.000000
0.008636 0.582062 0.000000
0.022491 0.582062 0.000000
0.040192 0.582062 0.000000
0.061218 0.582062 0.000000
0.084869 0.582062 0.000000
0.111237 0.582062 0.000000
0.139832 0.582062 0.000000
0.170532 0.582062 0.000000
0.203400 0.582062 0.000000
0.237915 0.582062 0.000000
0.274536 0.582062 0.000000
0.312836 0.582062 0.000000
0.352539 0.582062 0.000000
0.394135 0.582062 0.000000
0.436951 0.582062 0.000000
0.481567 0.582062 0.000000
0.527588 0.582062 0.000000
0.574768 0.582062 0.000000
0.623596 0.582062 0.000000
0.673523 0.582062 0.000000
0.724884 0.582062 0.000000
0.777466 0.582062 0.000000
0.831268 0.582062 0.000000
0.886444 0.582062 0.000000
0.942474 0.582062 0.000000
1.000000 0.582062 0.000000
0.000000 0.638275 0.000000
0.000000 0.638275 0.000000
0.000000 0.638275 0.000000
0.000000 0.638275 0.000000
0.000000 0.638275 0.000000
0.000336 0.638275 0.000000
0.008636 0.638275 0.000000
0.022491 0.638275 0.000000
0.040192 0.638275 0.000000
0.061218 0.638275 0.000000
0.084869 0.638275 0.000000
0.111237 0.638275 0.000000
0.139832 0.638275 0.000000
0.170532 0.638275 0.000000
0.203400 0.638275 0.000000
0.237915 0.638275 0.000000
0.274536 0.638275 0.000000
0.312836 0.638275 0.000000
0.352539 0.638275 0.000000
0.394135 0.638275 0.000000
0.436951 0.638275 0.000000
0.481567 0.638275 0.000000
0.527588 0.638275 0.000000
0.574768 0.638275 0.000000
0.623596 0.638275 0.000000
0.673523 0.638275 0.000000
0.724884 0.638275 0.000000
0.777466 0.638275 0.000000
0.831268 0.638275 0.000000
0.886444 0.638275 0.000000
0.942474 0.638275 0.000000
1.000000 0.638275 0.000000
0.000000 0.696533 0.000000
0.000000 0.696533 0.000000
0.000000 0.696533 0.000000
0.000000 0.696533 0.000000
0.000000 0.696533 0.000000
0.000336 0.696533 0.000000
0.008636 0.696533 0.000000
0.022491 0.696533 0.000000
0.040192 0.696533 0.000000
0.061218 0.696533 0.000000
0.084869 0.696533 0.000000
0.111237 0.696533 0.000000
0.139832 0.696533 0.000000
0.170532 0.696533 0.000000
0.203400 0.696533 0.000000
0.237915 0.696533 0.000000
0.274536 0.696533 0.000000
0.312836 0.696533 0.000000
0.352539 0.696533 0.000000
0.394135 0.696533 0.000000
0.436951 0.696533 0.000000
0.481567 0.696533 0.000000
0.527588 0.696533 0.000000
0.574768 0.696533 0.000000
0.623596 0.696533 0.000000
0.673523 0.696533 0.000000
0.724884 0.696533 0.000000
0.777466 0.696533 0.000000
0.831268 0.696533 0.000000
0.886444 0.696533 0.000000
0.942474 0.696533 0.000000
1.000000 0.696533 0.000000
0.000000 0.756989 0.000000
0.000000 0.756989 0.000000
0.000000 0.756989 0.000000
0.000000 0.756989 0.000000
0.000000 0.756989 0.000000
0.000336 0.756989 0.000000
0.008636 0.756989 0.000000
0.022491 0.756989 0.000000
0.040192 0.756989 0.000000
0.061218 0.756989 0.000000
0.084869 0.756989 0.000000
0.111237 0.756989 0.000000
0.139832 0.756989 0.000000
0.170532 0.756989 0.000000
0.203400 0.756989 0.000000
0.237915 0.756989 0.000000
0.274536 0.756989 0.000000
0.312836 0.756989 0.000000
0.352539 0.756989 0.000000
0.394135 0.756989 0.000000
0.436951 0.756989 0.000000
0.481567 0.756989 0.000000
0.527588 0.756989 0.000000
0.574768 0.756989 0.000000
0.623596 0.756989 0.000000
0.673523 0.756989 0.000000
0.724884 0.756989 0.000000
0.777466 0.756989 0.000000
0.831268 0.756989 0.000000
0.886444 0.756989 0.000000
0.942474 0.756989 0.000000
1.000000 0.756989 0.000000
0.000000 0.819550 0.000000
0.000000 0.819550 0.000000
0.000000 0.819550 0.000000
0.000000 0.819550 0.000000
0.000000 0.819550 0.000000
0.000336 0.819550 0.000000
0.008636 0.819550 0.000000
0.022491 0.819550 0.000000
0.040192 0.819550 0.000000
0.061218 0.819550 0.000000
0.084869 0.819550 0.000000
0.111237 0.819550 0.000000
0.139832 0.819550 0.000000
0.170532 0.819550 0.000000
0.203400 0.819550 0.000000
0.237915 0.819550 0.000000
0.274536 0.819550 0.000000
0.312836 0.819550 0.000000
0.352539 0.819550 0.000000
0.394135 0.819550 0.000000
0.436951 0.819550 0.000000
0.481567 0.819550 0.000000
0.527588 0.819550 0.000000
0.574768 0.819550 0.000000
0.623596 0.819550 0.000000
0.673523 0.819550 0.000000
0.724884 0.819550 0.000000
0.777466 0.819550 0.000000
0.831268 0.819550 0.000000
0.886444 0.819550 0.000000
0.942474 0.819550 0.000000
1.000000 0.819550 0.000000
0.000000 0.884430 0.000000
0.000000 0.884430 0.000000
0.000000 0.884430 0.000000
0.000000 0.884430 0.000000
0.000000 0.884430 0.000000
0.000336 0.884430 0.000000
0.008636 0.884430 0.000000
0.022491 0.884430 0.000000
0.040192 0.884430 0.000000
0.061218 0.884430 0.000000
0.084869 0.884430 0.000000
0.111237 0.884430 0.000000
0.139832 0.884430 0.000000
0.170532 0.884430 0.000000
0.203400 0.884430 0.000000
0.237915 0.884430 0.000000
0.274536 0.884430 0.000000
0.312836 0.884430 0.000000
0.352539 0.884430 0.000000
0.394135 0.884430 0.000000
0.436951 0.884430 0.000000
0.481567 0.884430 0.000000
0.527588 0.884430 0.000000
0.574768 0.884430 0.000000
0.623596 0.884430 0.000000
0.673523 0.884430 0.000000
0.724884 0.884430 0.000000
0.777466 0.884430 0.000000
0.831268 0.884430 0.000000
0.886444 0.884430 0.000000
0.942474 0.884430 0.000000
1.000000 0.884430 0.000000
0.000000 0.951050 0.000000
0.000000 0.951050 0.000000
0.000000 0.951050 0.000000
0.000000 0.951050 0.000000
0.000000 0.951050 0.000000
0.000336 0.951050 0.000000
0.008636 0.951050 0.000000
0.022491 0.951050 0.000000
0.040192 0.951050 0.000000
0.061218 0.951050 0.000000
0.084869 0.951050 0.000000
0.111237 0.951050 0.000000
0.139832 0.951050 0.000000
0.170532 0.951050 0.000000
0.203400 0.951050 0.000000
0.237915 0.951050 0.000000
0.274536 0.951050 0.000000
0.312836 0.951050 0.000000
