Assignment 1 - Ryan Yee - 100785620/luts/coolCC.CUBE
#Created by: Adobe Photoshop Export Color Lookup Plugin
TITLE "Untitled-1"
#LUT size
LUT_3D_SIZE 8
#data domain
#LUT data points
DOMAIN_MIN 0.000000 0.000000 0.000000
DOMAIN_MAX 0.903226 0.903226 0.903226
0.000000 0.000000 0.000000
0.000000 0.000000 0.000000
0.040192 0.000000 0.000000
0.139832 0.000000 0.000000
0.274536 0.000000 0.000000
0.436951 0.000000 0.000000
0.623596 0.000000 0.000000
0.831268 0.000000 0.000000
0.000000 0.005432 0.000000
0.000000 0.005432 0.000000
0.040192 0.005432 0.000000
0.139832 0.005432 0.000000
0.274536 0.005432 0.000000
0.436951 0.005432 0.000000
0.623596 0.005432 0.000000
0.831268 0.005432 0.000000
0.000000 0.067261 0.000000
0.000000 0.067261 0.000000
0.040192 0.067261 0.000000
0.139832 0.067261 0.000000
0.274536 0.067261 0.000000
0.436951 0.067261 0.000000
0.623596 0.067261 0.000000
0.831268 0.067261 0.000000
0.000000 0.179688 0.000000
0.000000 0.179688 0.000000
0.040192 0.179688 0.000000
0.139832 0.179688 0.000000
0.274536 0.179688 0.000000
0.436951 0.179688 0.000000
0.623596 0.179688 0.000000
0.831268 0.179688 0.000000
0.000000 0.334717 0.000000
0.000000 0.334717 0.000000
0.040192 0.334717 0.000000
0.139832 0.334717 0.000000
0.274536 0.334717 0.000000
0.436951 0.334717 0.000000
0.623596 0.334717 0.000000
0.831268 0.334717 0.000000
0.000000 0.528046 0.000000
0.000000 0.528046 0.000000
0.040192 0.528046 0.000000
0.139832 0.528046 0.000000
0.274536 0.528046 0.000000
0.436951 0.528046 0.000000
0.623596 0.528046 0.000000
0.831268 0.528046 0.000000
0.000000 0.756989 0.000000
0.000000 0.756989 0.000000
0.040192 0.756989 0.000000
0.139832 0.756989 0.000000
0.274536 0.756989 0.000000
0.436951 0.756989 0.000000
0.623596 0.756989 0.000000
0.831268 0.756989 0.000000
0.000000 1.000000 0.000000
0.000000 1.000000 0.000000
0.040192 1.000000 0.000000
0.139832 1.000000 0.000000
0.274536 1.000000 0.000000
0.436951 1.000000 0.000000
0.623596 1.000000 0.000000
0.831268 1.000000 0.000000
0.000000 0.000000 0.397247
0.000000 0.000000 0.397247
0.040192 0.000000 0.397247
0.139832 0.000000 0.397247
0.274536 0.000000 0.397247
0.436951 0.000000 0.397247
0.623596 0.000000 0.397247
0.831268 0.000000 0.397247
0.000000 0.005432 0.397247
0.000000 0.005432 0.397247
0.040192 0.005432 0.397247
0.139832 0.005432 0.397247
0.274536 0.005432 0.397247
0.436951 0.005432 0.397247
0.623596 0.005432 0.397247
0.831268 0.005432 0.397247
0.000000 0.067261 0.397247
0.000000 0.067261 0.397247
0.040192 0.067261 0.397247
0.139832 0.067261 0.397247
0.274536 0.067261 0.397247
0.436951 0.067261 0.397247
0.623596 0.067261 0.397247
0.831268 0.067261 0.397247
0.000000 0.179688 0.397247
0.000000 0.179688 0.397247
0.040192 0.179688 0.397247
0.139832 0.179688 0.397247
0.274536 0.179688 0.397247
0.436951 0.179688 0.397247
0.623596 0.179688 0.397247
0.831268 0.179688 0.397247
0.000000 0.334717 0.397247
0.000000 0.334717 0.397247
0.040192 0.334717 0.397247
0.139832 0.334717 0.397247
0.274536 0.334717 0.397247
0.436951 0.334717 0.397247
0.623596 0.334717 0.397247
0.831268 0.334717 0.397247
0.000000 0.528046 0.397247
0.000000 0.528046 0.397247
0.040192 0.528046 0.397247
0.139832 0.528046 0.397247
0.274536 0.528046 0.397247
0.436951 0.528046 0.397247
0.623596 0.528046 0.397247
0.831268 0.528046 0.397247
0.000000 0.756989 0.397247
0.000000 0.756989 0.397247
0.040192 0.756989 0.397247
0.139832 0.756989 0.397247
0.274536 0.756989 0.397247
0.436951 0.756989 0.397247
0.623596 0.756989 0.397247
0.831268 0.756989 0.397247
0.000000 1.000000 0.397247
0.000000 1.000000 0.397247
0.040192 1.000000 0.397247
0.139832 1.000000 0.397247
0.274536 1.000000 0.397247
0.436951 1.000000 0.397247
0.623596 1.000000 0.397247
0.831268 1.000000 0.397247
0.000000 0.000000 0.594391
0.000000 0.000000 0.594391
0.040192 0.000000 0.594391
0.139832 0.000000 0.594391
0.274536 0.000000 0.594391
0.436951 0.000000 0.594391
0.623596 0.000000 0.594391
0.831268 0.000000 0.594391
0.000000 0.005432 0.594391
0.000000 0.005432 0.594391
0.040192 0.005432 0.594391
0.139832 0.005432 0.594391
0.274536 0.005432 0.594391
0.436951 0.005432 0.594391
0.623596 0.005432 0.594391
0.831268 0.005432 0.594391
0.000000 0.067261 0.594391
0.000000 0.067261 0.594391
0.040192 0.067261 0.594391
0.139832 0.067261 0.594391
0.274536 0.067261 0.594391
0.436951 0.067261 0.594391
0.623596 0.067261 0.594391
0.831268 0.067261 0.594391
0.000000 0.179688 0.594391
0.000000 0.179688 0.594391
0.040192 0.179688 0.594391
0.139832 0.179688 0.594391
0.274536 0.179688 0.594391
0.436951 0.179688 0.594391
0.623596 0.179688 0.594391
0.831268 0.179688 0.594391
0.000000 0.334717 0.594391
0.000000 0.334717 0.594391
0.040192 0.334717 0.594391
0.139832 0.334717 0.594391
0.274536 0.334717 0.594391
0.436951 0.334717 0.594391
0.623596 0.334717 0.594391
0.831268 0.334717 0.594391
0.000000 0.528046 0.594391
0.000000 0.528046 0.594391
0.040192 0.528046 0.594391
0.139832 0.528046 0.594391
0.274536 0.528046 0.594391
0.436951 0.528046 0.594391
0.623596 0.528046 0.594391
0.831268 0.528046 0.594391
0.000000 0.756989 0.594391
0.000000 0.756989 0.594391
0.040192 0.756989 0.594391
0.139832 0.756989 0.594391
0.274536 0.756989 0.594391
0.436951 0.756989 0.594391
0.623596 0.756989 0.594391
0.831268 0.756989 0.594391
0.000000 1.000000 0.594391
0.000000 1.000000 0.594391
0.040192 1.000000 0.594391
0.139832 1.000000 0.594391
0.274536 1.000000 0.594391
0.436951 1.000000 0.594391
0.623596 1.000000 0.594391
0.831268 1.000000 0.594391
0.000000 0.000000 0.752472
0.000000 0.000000 0.752472
0.040192 0.000000 0.752472
0.139832 0.000000 0.752472
0.274536 0.000000 0.752472
0.436951 0.000000 0.752472
0.623596 0.000000 0.752472
0.831268 0.000000 0.752472
0.000000 0.005432 0.752472
0.000000 0.005432 0.752472
0.040192 0.005432 0.752472
0.139832 0.005432 0.752472
0.274536 0.005432 0.752472
0.436951 0.005432 0.752472
0.623596 0.005432 0.752472
0.831268 0.005432 0.752472
0.000000 0.067261 0.752472
0.000000 0.067261 0.752472
0.040192 0.067261 0.752472
0.139832 0.067261 0.752472
0.274536 0.067261 0.752472
0.436951 0.067261 0.752472
0.623596 0.067261 0.752472
0.831268 0.067261 0.752472
0.000000 0.179688 0.752472
0.000000 0.179688 0.752472
0.040192 0.179688 0.752472
0.139832 0.179688 0.752472
0.274536 0.179688 0.752472
0.436951 0.179688 0.752472
0.623596 0.179688 0.752472
0.831268 0.179688 0.752472
0.000000 0.334717 0.752472
0.000000 0.334717 0.752472
0.040192 0.334717 0.752472
0.139832 0.334717 0.752472
0.274536 0.334717 0.752472
0.436951 0.334717 0.752472
0.623596 0.334717 0.752472
0.831268 0.334717 0.752472
0.000000 0.528046 0.752472
0.000000 0.528046 0.752472
0.040192 0.528046 0.752472
0.139832 0.528046 0.752472
0.274536 0.528046 0.752472
0.436951 0.528046 0.752472
0.623596 0.528046 0.752472
0.831268 0.528046 0.752472
0.000000 0.756989 0.752472
0.000000 0.756989 0.752472
0.040192 0.756989 0.752472
0.139832 0.756989 0.752472
0.274536 0.756989 0.752472
0.436951 0.756989 0.752472
0.623596 0.756989 0.752472
0.831268 0.756989 0.752472
0.000000 1.000000 0.752472
0.000000 1.000000 0.752472
0.040192 1.000000 0.752472
0.139832 1.000000 0.752472
0.274536 1.000000 0.752472
0.436951 1.000000 0.752472
0.623596 1.000000 0.752472
0.831268 1.000000 0.752472
0.000000 0.000000 0.889404
0.000000 0.000000 0.889404
0.040192 0.000000 0.889404
0.139832 0.000000 0.889404
0.274536 0.000000 0.889404
0.436951 0.000000 0.889404
0.623596 0.000000 0.889404
0.831268 0.000000 0.889404
0.000000 0.005432 0.889404
0.000000 0.005432 0.889404
0.040192 0.005432 0.889404
0.139832 0.005432 0.889404
0.274536 0.005432 0.889404
0.436951 0.005432 0.889404
0.623596 0.005432 0.889404
0.831268 0.005432 0.889404
0.000000 0.067261 0.889404
0.000000 0.067261 0.889404
0.040192 0.067261 0.889404
0.139832 0.067261 0.889404
0.274536 0.067261 0.889404
0.436951 0.067261 0.889404
0.623596 0.067261 0.889404
0.831268 0.067261 0.889404
0.000000 0.179688 0.889404
0.000000 0.179688 0.889404
0.040192 0.179688 0.889404
0.139832 0.179688 0.889404
0.274536 0.179688 0.889404
0.436951 0.179688 0.889404
0.623596 0.179688 0.889404
0.831268 0.179688 0.889404
0.000000 0.334717 0.889404
0.000000 0.334717 0.889404
0.040192 0.334717 0.889404
0.139832 0.334717 0.889404
0.274536 0.334717 0.889404
0.436951 0.334717 0.889404
0.623596 0.334717 0.889404
0.831268 0.334717 0.889404
0.000000 0.528046 0.889404
0.000000 0.528046 0.889404
0.040192 0.528046 0.889404
0.139832 0.528046 0.889404
0.274536 0.528046 0.889404
0.436951 0.528046 0.889404
0.623596 0.528046 0.889404
0.831268 0.528046 0.889404
0.000000 0.756989 0.889404
0.000000 0.756989 0.889404
0.040192 0.756989 0.889404
0.139832 0.756989 0.889404
0.274536 0.756989 0.889404
0.436951 0.756989 0.889404
0.623596 0.756989 0.889404
0.831268 0.756989 0.889404
0.000000 1.000000 0.889404
0.000000 1.000000 0.889404
0.040192 1.000000 0.889404
0.139832 1.000000 0.889404
0.274536 1.000000 0.889404
0.436951 1.000000 0.889404
0.623596 1.000000 0.889404
0.831268 1.000000 0.889404
0.000000 0.000000 1.000000
0.000000 0.000000 1.000000
0.040192 0.000000 1.000000
0.139832 0.000000 1.000000
0.274536 0.000000 1.000000
0.436951 0.000000 1.000000
0.623596 0.000000 1.000000
0.831268 0.000000 1.000000
0.000000 0.005432 1.000000
0.000000 0.005432 1.000000
0.040192 0.005432 1.000000
0.139832 0.005432 1.000000
0.274536 0.005432 1.000000
0.436951 0.005432 1.000000
0.623596 0.005432 1.000000
0.831268 0.005432 1.000000
0.000000 0.067261 1.000000
0.000000 0.067261 1.000000
0.040192 0.067261 1.000000
0.139832 0.067261 1.000000
0.274536 0.067261 1.000000
0.436951 0.067261 1.000000
0.623596 0.067261 1.000000
0.831268 0.067261 1.000000
0.000000 0.179688 1.000000
0.000000 0.179688 1.000000
0.040192 0.179688 1.000000
0.139832 0.179688 1.000000
0.274536 0.179688 1.000000
0.436951 0.179688 1.000000
0.623596 0.179688 1.000000
0.831268 0.179688 1.000000
0.000000 0.334717 1.000000
0.000000 0.334717 1.000000
0.040192 0.334717 1.000000
0.139832 0.334717 1.000000
0.274536 0.334717 1.000000
0.436951 0.334717 1.000000
0.623596 0.334717 1.000000
0.831268 0.334717 1.000000
0.000000 0.528046 1.000000
0.000000 0.528046 1.000000
0.040192 0.528046 1.000000
0.139832 0.528046 1.000000
0.274536 0.528046 1.000000
0.436951 0.528046 1.000000
0.623596 0.528046 1.000000
0.831268 0.528046 1.000000
0.000000 0.756989 1.000000
0.000000 0.756989 1.000000
0.040192 0.756989 1.000000
0.139832 0.756989 1.000000
0.274536 0.756989 1.000000
0.436951 0.756989 1.000000
0.623596 0.756989 1.000000
0.831268 0.756989 1.000000
0.000000 1.000000 1.000000
0.000000 1.000000 1.000000
0.040192 1.000000 1.000000
0.139832 1.000000 1.000000
0.274536 1.000000 1.000000
0.436951 1.000000 1.000000
0.623596 1.000000 1.000000
0.831268 1.000000 1.000000
0.000000 0.000000 1.000000
0.000000 0.000000 1.000000
0.040192 0.000000 1.000000
0.139832 0.000000 1.000000
0.274536 0.000000 1.000000
0.436951 0.000000 1.000000
0.623596 0.000000 1.000000
0.831268 0.000000 1.000000
0.000000 0.005432 1.000000
0.000000 0.005432 1.000000
0.040192 0.005432 1.000000
0.139832 0.005432 1.000000
0.274536 0.005432 1.000000
0.436951 0.005432 1.000000
0.623596 0.005432 1.000000
0.831268 0.005432 1.000000
0.000000 0.067261 1.000000
0.000000 0.067261 1.000000
0.040192 0.067261 1.000000
0.139832 0.067261 1.000000
0.274536 0.067261 1.000000
0.436951 0.067261 1.000000
0.623596 0.067261 1.000000
0.831268 0.067261 1.000000
0.000000 0.179688 1.000000
0.000000 0.179688 1.000000
0.040192 0.179688 1.000000
0.139832 0.179688 1.000000
0.274536 0.179688 1.000000
0.436951 0.179688 1.000000
0.623596 0.179688 1.000000
0.831268 0.179688 1.000000
0.000000 0.334717 1.000000
0.000000 0.334717 1.000000
0.040192 0.334717 1.000000
0.139832 0.334717 1.000000
0.274536 0.334717 1.000000
0.436951 0.334717 1.000000
0.623596 0.334717 1.000000
0.831268 0.334717 1.000000
0.000000 0.528046 1.000000
0.000000 0.528046 1.000000
0.040192 0.528046 1.000000
0.139832 0.528046 1.000000
0.274536 0.528046 1.000000
0.436951 0.528046 1.000000
0.623596 0.528046 1.000000
0.831268 0.528046 1.000000
0.000000 0.756989 1.000000
0.000000 0.756989 1.000000
0.040192 0.756989 1.000000
0.139832 0.756989 1.000000
0.274536 0.756989 1.000000
0.436951 0.756989 1.000000
0.623596 0.756989 1.000000
0.831268 0.756989 1.000000
0.000000 1.000000 1.000000
0.000000 1.000000 1.000000
0.040192 1.000000 1.000000
0.139832 1.000000 1.000000
0.274536 1.000000 1.000000
0.436951 1.000000 1.000000
0.623596 1.000000 1.000000
0.831268 1.000000 1.000000
0.000000 0.000000 1.000000
0.000000 0.000000 1.000000
0.040192 0.000000 1.000000
0.139832 0.000000 1.000000
0.274536 0.000000 1.000000
0.436951 0.000000 1.000000
0.623596 0.000000 1.000000
0.831268 0.000000 1.000000
0.000000 0.005432 1.000000
0.000000 0.005432 1.000000
0.040192 0.005432 1.000000
0.139832 0.005432 1.000000
0.274536 0.005432 1.000000
0.436951 0.005432 1.000000
0.623596 0.005432 1.000000
0.831268 0.005432 1.000000
0.000000 0.067261 1.000000
0.000000 0.067261 1.000000
0.040192 0.067261 1.000000
0.139832 0.067261 1.000000
0.274536 0.067261 1.000000
0.436951 0.067261 1.000000
0.623596 0.067261 1.000000
0.831268 0.067261 1.000000
0.000000 0.179688 1.000000
0.000000 0.179688 1.000000
0.040192 0.179688 1.000000
0.139832 0.179688 1.000000
0.274536 0.179688 1.000000
0.436951 0.179688 1.000000
0.623596 0.179688 1.000000
0.831268 0.179688 1.000000
0.000000 0.334717 1.000000
0.000000 0.334717 1.000000
0.040192 0.334717 1.000000
0.139832 0.334717 1.000000
0.274536 0.334717 1.000000
0.436951 0.334717 1.000000
0.623596 0.334717 1.000000
0.831268 0.334717 1.000000
0.000000 0.528046 1.000000
0.000000 0.528046 1.000000
0.040192 0.528046 1.000000
0.139832 0.528046 1.000000
0.274536 0.528046 1.000000
0.436951 0.528046 1.000000
0.623596 0.528046 1.000000
0.831268 0.528046 1.000000
0.000000 0.756989 1.000000
0.000000 0.756989 1.000000
0.040192 0.756989 1.000000
0.139832 0.756989 1.000000
0.274536 0.756989 1.000000
0.436951 0.756989 1.000000
0.623596 0.756989 1.000000
0.831268 0.756989 1.000000
0.000000 1.000000 1.000000
0.000000 1.000000 1.000000
0.040192 1.000000 1.000000
0.139832 1.000000 1.000000
0.274536 1.000000 1.000000
0.436951 1.000000 1.000000
0.623596 1.000000 1.000000
0.831268 1.000000 1.000000
