Assignment 1 - Ryan Yee - 100785620/luts/warmCC.CUBE
#Created by: Adobe Photoshop Export Color Lookup Plugin
TITLE "Untitled-1"
#LUT size
LUT_3D_SIZE 32
#data domain
DOMAIN_MIN 0.0 0.0 0.0
DOMAIN_MAX 1.0 1.0 1.0
#LUT data points
0.000000 0.000000 0.000000
0.095398 0.000000 0.000000
0.177032 0.000000 0.000000
0.241608 0.000000 0.000000
0.289093 0.000000 0.000000
0.330933 0.000000 0.000000
0.369629 0.000000 0.000000
0.405792 0.000000 0.000000
0.440002 0.000000 0.000000
0.472565 0.000000 0.000000
0.503723 0.000000 0.000000
0.533691 0.000000 0.000000
0.562592 0.000000 0.000000
0.590546 0.000000 0.000000
0.617676 0.000000 0.000000
0.644043 0.000000 0.000000
0.669769 0.000000 0.000000
0.694855 0.000000 0.000000
0.719299 0.000000 0.000000
0.743286 0.000000 0.000000
0.766754 0.000000 0.000000
0.789764 0.000000 0.000000
0.812317 0.000000 0.000000
0.834534 0.000000 0.000000
0.856323 0.000000 0.000000
0.877777 0.000000 0.000000
0.898895 0.000000 0.000000
0.919708 0.000000 0.000000
0.940186 0.000000 0.000000
0.960388 0.000000 0.000000
0.980316 0.000000 0.000000
1.000000 0.000000 0.000000
0.000000 0.047882 0.000000
0.095398 0.047882 0.000000
0.177032 0.047882 0.000000
0.241608 0.047882 0.000000
0.289093 0.047882 0.000000
0.330933 0.047882 0.000000
0.369629 0.047882 0.000000
0.405792 0.047882 0.000000
0.440002 0.047882 0.000000
0.472565 0.047882 0.000000
0.503723 0.047882 0.000000
0.533691 0.047882 0.000000
0.562592 0.047882 0.000000
0.590546 0.047882 0.000000
0.617676 0.047882 0.000000
0.644043 0.047882 0.000000
0.669769 0.047882 0.000000
0.694855 0.047882 0.000000
0.719299 0.047882 0.000000
0.743286 0.047882 0.000000
0.766754 0.047882 0.000000
0.789764 0.047882 0.000000
0.812317 0.047882 0.000000
0.834534 0.047882 0.000000
0.856323 0.047882 0.000000
0.877777 0.047882 0.000000
0.898895 0.047882 0.000000
0.919708 0.047882 0.000000
0.940186 0.047882 0.000000
0.960388 0.047882 0.000000
0.980316 0.047882 0.000000
1.000000 0.047882 0.000000
0.000000 0.088440 0.000000
0.095398 0.088440 0.000000
0.177032 0.088440 0.000000
0.241608 0.088440 0.000000
0.289093 0.088440 0.000000
0.330933 0.088440 0.000000
0.369629 0.088440 0.000000
0.405792 0.088440 0.000000
0.440002 0.088440 0.000000
0.472565 0.088440 0.000000
0.503723 0.088440 0.000000
0.533691 0.088440 0.000000
0.562592 0.088440 0.000000
0.590546 0.088440 0.000000
0.617676 0.088440 0.000000
0.644043 0.088440 0.000000
0.669769 0.088440 0.000000
0.694855 0.088440 0.000000
0.719299 0.088440 0.000000
0.743286 0.088440 0.000000
0.766754 0.088440 0.000000
0.789764 0.088440 0.000000
0.812317 0.088440 0.000000
0.834534 0.088440 0.000000
0.856323 0.088440 0.000000
0.877777 0.088440 0.000000
0.898895 0.088440 0.000000
0.919708 0.088440 0.000000
0.940186 0.088440 0.000000
0.960388 0.088440 0.000000
0.980316 0.088440 0.000000
1.000000 0.088440 0.000000
0.000000 0.126587 0.000000
0.095398 0.126587 0.000000
0.177032 0.126587 0.000000
0.241608 0.126587 0.000000
0.289093 0.126587 0.000000
0.330933 0.126587 0.000000
0.369629 0.126587 0.000000
0.405792 0.126587 0.000000
0.440002 0.126587 0.000000
0.472565 0.126587 0.000000
0.503723 0.126587 0.000000
0.533691 0.126587 0.000000
0.562592 0.126587 0.000000
0.590546 0.126587 0.000000
0.617676 0.126587 0.000000
0.644043 0.126587 0.000000
0.669769 0.126587 0.000000
0.694855 0.126587 0.000000
0.719299 0.126587 0.000000
0.743286 0.126587 0.000000
0.766754 0.126587 0.000000
0.789764 0.126587 0.000000
0.812317 0.126587 0.000000
0.834534 0.126587 0.000000
0.856323 0.126587 0.000000
0.877777 0.126587 0.000000
0.898895 0.126587 0.000000
0.919708 0.126587 0.000000
0.940186 0.126587 0.000000
0.960388 0.126587 0.000000
0.980316 0.126587 0.000000
1.000000 0.126587 0.000000
0.000000 0.163330 0.000000
0.095398 0.163330 0.000000
0.177032 0.163330 0.000000
0.241608 0.163330 0.000000
0.289093 0.163330 0.000000
0.330933 0.163330 0.000000
0.369629 0.163330 0.000000
0.405792 0.163330 0.000000
0.440002 0.163330 0.000000
0.472565 0.163330 0.000000
0.503723 0.163330 0.000000
0.533691 0.163330 0.000000
0.562592 0.163330 0.000000
0.590546 0.163330 0.000000
0.617676 0.163330 0.000000
0.644043 0.163330 0.000000
0.669769 0.163330 0.000000
0.694855 0.163330 0.000000
0.719299 0.163330 0.000000
0.743286 0.163330 0.000000
0.766754 0.163330 0.000000
0.789764 0.163330 0.000000
0.812317 0.163330 0.000000
0.834534 0.163330 0.000000
0.856323 0.163330 0.000000
0.877777 0.163330 0.000000
0.898895 0.163330 0.000000
0.919708 0.163330 0.000000
0.940186 0.163330 0.000000
0.960388 0.163330 0.000000
0.980316 0.163330 0.000000
1.000000 0.163330 0.000000
0.000000 0.198975 0.000000
0.095398 0.198975 0.000000
0.177032 0.198975 0.000000
0.241608 0.198975 0.000000
0.289093 0.198975 0.000000
0.330933 0.198975 0.000000
0.369629 0.198975 0.000000
0.405792 0.198975 0.000000
0.440002 0.198975 0.000000
0.472565 0.198975 0.000000
0.503723 0.198975 0.000000
0.533691 0.198975 0.000000
0.562592 0.198975 0.000000
0.590546 0.198975 0.000000
0.617676 0.198975 0.000000
0.644043 0.198975 0.000000
0.669769 0.198975 0.000000
0.694855 0.198975 0.000000
0.719299 0.198975 0.000000
0.743286 0.198975 0.000000
0.766754 0.198975 0.000000
0.789764 0.198975 0.000000
0.812317 0.198975 0.000000
0.834534 0.198975 0.000000
0.856323 0.198975 0.000000
0.877777 0.198975 0.000000
0.898895 0.198975 0.000000
0.919708 0.198975 0.000000
0.940186 0.198975 0.000000
0.960388 0.198975 0.000000
0.980316 0.198975 0.000000
1.000000 0.198975 0.000000
0.000000 0.233795 0.000000
0.095398 0.233795 0.000000
0.177032 0.233795 0.000000
0.241608 0.233795 0.000000
0.289093 0.233795 0.000000
0.330933 0.233795 0.000000
0.369629 0.233795 0.000000
0.405792 0.233795 0.000000
0.440002 0.233795 0.000000
0.472565 0.233795 0.000000
0.503723 0.233795 0.000000
0.533691 0.233795 0.000000
0.562592 0.233795 0.000000
0.590546 0.233795 0.000000
0.617676 0.233795 0.000000
0.644043 0.233795 0.000000
0.669769 0.233795 0.000000
0.694855 0.233795 0.000000
0.719299 0.233795 0.000000
0.743286 0.233795 0.000000
0.766754 0.233795 0.000000
0.789764 0.233795 0.000000
0.812317 0.233795 0.000000
0.834534 0.233795 0.000000
0.856323 0.233795 0.000000
0.877777 0.233795 0.000000
0.898895 0.233795 0.000000
0.919708 0.233795 0.000000
0.940186 0.233795 0.000000
0.960388 0.233795 0.000000
0.980316 0.233795 0.000000
1.000000 0.233795 0.000000
0.000000 0.267975 0.000000
0.095398 0.267975 0.000000
0.177032 0.267975 0.000000
0.241608 0.267975 0.000000
0.289093 0.267975 0.000000
0.330933 0.267975 0.000000
0.369629 0.267975 0.000000
0.405792 0.267975 0.000000
0.440002 0.267975 0.000000
0.472565 0.267975 0.000000
0.503723 0.267975 0.000000
0.533691 0.267975 0.000000
0.562592 0.267975 0.000000
0.590546 0.267975 0.000000
0.617676 0.267975 0.000000
0.644043 0.267975 0.000000
0.669769 0.267975 0.000000
0.694855 0.267975 0.000000
0.719299 0.267975 0.000000
0.743286 0.267975 0.000000
0.766754 0.267975 0.000000
0.789764 0.267975 0.000000
0.812317 0.267975 0.000000
0.834534 0.267975 0.000000
0.856323 0.267975 0.000000
0.877777 0.267975 0.000000
0.898895 0.267975 0.000000
0.919708 0.267975 0.000000
0.940186 0.267975 0.000000
0.960388 0.267975 0.000000
0.980316 0.267975 0.000000
1.000000 0.267975 0.000000
0.000000 0.301575 0.000000
0.095398 0.301575 0.000000
0.177032 0.301575 0.000000
0.241608 0.301575 0.000000
0.289093 0.301575 0.000000
0.330933 0.301575 0.000000
0.369629 0.301575 0.000000
0.405792 0.301575 0.000000
0.440002 0.301575 0.000000
0.472565 0.301575 0.000000
0.503723 0.301575 0.000000
0.533691 0.301575 0.000000
0.562592 0.301575 0.000000
0.590546 0.301575 0.000000
0.617676 0.301575 0.000000
0.644043 0.301575 0.000000
0.669769 0.301575 0.000000
0.694855 0.301575 0.000000
0.719299 0.301575 0.000000
0.743286 0.301575 0.000000
0.766754 0.301575 0.000000
0.789764 0.301575 0.000000
0.812317 0.301575 0.000000
0.834534 0.301575 0.000000
0.856323 0.301575 0.000000
0.877777 0.301575 0.000000
0.898895 0.301575 0.000000
0.919708 0.301575 0.000000
0.940186 0.301575 0.000000
0.960388 0.301575 0.000000
0.980316 0.301575 0.000000
1.000000 0.301575 0.000000
0.000000 0.334717 0.000000
0.095398 0.334717 0.000000
0.177032 0.334717 0.000000
0.241608 0.334717 0.000000
0.289093 0.334717 0.000000
0.330933 0.334717 0.000000
0.369629 0.334717 0.000000
0.405792 0.334717 0.000000
0.440002 0.334717 0.000000
0.472565 0.334717 0.000000
0.503723 0.334717 0.000000
0.533691 0.334717 0.000000
0.562592 0.334717 0.000000
0.590546 0.334717 0.000000
0.617676 0.334717 0.000000
0.644043 0.334717 0.000000
0.669769 0.334717 0.000000
0.694855 0.334717 0.000000
0.719299 0.334717 0.000000
0.743286 0.334717 0.000000
0.766754 0.334717 0.000000
0.789764 0.334717 0.000000
0.812317 0.334717 0.000000
0.834534 0.334717 0.000000
0.856323 0.334717 0.000000
0.877777 0.334717 0.000000
0.898895 0.334717 0.000000
0.919708 0.334717 0.000000
0.940186 0.334717 0.000000
0.960388 0.334717 0.000000
0.980316 0.334717 0.000000
1.000000 0.334717 0.000000
0.000000 0.367401 0.000000
0.095398 0.367401 0.000000
0.177032 0.367401 0.000000
0.241608 0.367401 0.000000
0.289093 0.367401 0.000000
0.330933 0.367401 0.000000
0.369629 0.367401 0.000000
0.405792 0.367401 0.000000
0.440002 0.367401 0.000000
0.472565 0.367401 0.000000
0.503723 0.367401 0.000000
0.533691 0.367401 0.000000
0.562592 0.367401 0.000000
0.590546 0.367401 0.000000
0.617676 0.367401 0.000000
0.644043 0.367401 0.000000
0.669769 0.367401 0.000000
0.694855 0.367401 0.000000
0.719299 0.367401 0.000000
0.743286 0.367401 0.000000
0.766754 0.367401 0.000000
0.789764 0.367401 0.000000
0.812317 0.367401 0.000000
0.834534 0.367401 0.000000
0.856323 0.367401 0.000000
0.877777 0.367401 0.000000
0.898895 0.367401 0.000000
0.919708 0.367401 0.000000
0.940186 0.367401 0.000000
0.960388 0.367401 0.000000
0.980316 0.367401 0.000000
1.000000 0.367401 0.000000
0.000000 0.399750 0.000000
0.095398 0.399750 0.000000
0.177032 0.399750 0.000000
0.241608 0.399750 0.000000
0.289093 0.399750 0.000000
0.330933 0.399750 0.000000
0.369629 0.399750 0.000000
0.405792 0.399750 0.000000
0.440002 0.399750 0.000000
0.472565 0.399750 0.000000
0.503723 0.399750 0.000000
0.533691 0.399750 0.000000
0.562592 0.399750 0.000000
0.590546 0.399750 0.000000
0.617676 0.399750 0.000000
0.644043 0.399750 0.000000
0.669769 0.399750 0.000000
0.694855 0.399750 0.000000
0.719299 0.399750 0.000000
0.743286 0.399750 0.000000
0.766754 0.399750 0.000000
0.789764 0.399750 0.000000
0.812317 0.399750 0.000000
0.834534 0.399750 0.000000
0.856323 0.399750 0.000000
0.877777 0.399750 0.000000
0.898895 0.399750 0.000000
0.919708 0.399750 0.000000
0.940186 0.399750 0.000000
0.960388 0.399750 0.000000
0.980316 0.399750 0.000000
1.000000 0.399750 0.000000
0.000000 0.431732 0.000000
0.095398 0.431732 0.000000
0.177032 0.431732 0.000000
0.241608 0.431732 0.000000
0.289093 0.431732 0.000000
0.330933 0.431732 0.000000
0.369629 0.431732 0.000000
0.405792 0.431732 0.000000
0.440002 0.431732 0.000000
0.472565 0.431732 0.000000
0.503723 0.431732 0.000000
0.533691 0.431732 0.000000
0.562592 0.431732 0.000000
0.590546 0.431732 0.000000
0.617676 0.431732 0.000000
0.644043 0.431732 0.000000
0.669769 0.431732 0.000000
0.694855 0.431732 0.000000
0.719299 0.431732 0.000000
0.743286 0.431732 0.000000
0.766754 0.431732 0.000000
0.789764 0.431732 0.000000
0.812317 0.431732 0.000000
0.834534 0.431732 0.000000
0.856323 0.431732 0.000000
0.877777 0.431732 0.000000
0.898895 0.431732 0.000000
0.919708 0.431732 0.000000
0.940186 0.431732 0.000000
0.960388 0.431732 0.000000
0.980316 0.431732 0.000000
1.000000 0.431732 0.000000
0.000000 0.463440 0.000000
0.095398 0.463440 0.000000
0.177032 0.463440 0.000000
0.241608 0.463440 0.000000
0.289093 0.463440 0.000000
0.330933 0.463440 0.000000
0.369629 0.463440 0.000000
0.405792 0.463440 0.000000
0.440002 0.463440 0.000000
0.472565 0.463440 0.000000
0.503723 0.463440 0.000000
0.533691 0.463440 0.000000
0.562592 0.463440 0.000000
0.590546 0.463440 0.000000
0.617676 0.463440 0.000000
0.644043 0.463440 0.000000
0.669769 0.463440 0.000000
0.694855 0.463440 0.000000
0.719299 0.463440 0.000000
0.743286 0.463440 0.000000
0.766754 0.463440 0.000000
0.789764 0.463440 0.000000
0.812317 0.463440 0.000000
0.834534 0.463440 0.000000
0.856323 0.463440 0.000000
0.877777 0.463440 0.000000
0.898895 0.463440 0.000000
0.919708 0.463440 0.000000
0.940186 0.463440 0.000000
0.960388 0.463440 0.000000
0.980316 0.463440 0.000000
1.000000 0.463440 0.000000
0.000000 0.494843 0.000000
0.095398 0.494843 0.000000
0.177032 0.494843 0.000000
0.241608 0.494843 0.000000
0.289093 0.494843 0.000000
0.330933 0.494843 0.000000
0.369629 0.494843 0.000000
0.405792 0.494843 0.000000
0.440002 0.494843 0.000000
0.472565 0.494843 0.000000
0.503723 0.494843 0.000000
0.533691 0.494843 0.000000
0.562592 0.494843 0.000000
0.590546 0.494843 0.000000
0.617676 0.494843 0.000000
0.644043 0.494843 0.000000
0.669769 0.494843 0.000000
0.694855 0.494843 0.000000
0.719299 0.494843 0.000000
0.743286 0.494843 0.000000
0.766754 0.494843 0.000000
0.789764 0.494843 0.000000
0.812317 0.494843 0.000000
0.834534 0.494843 0.000000
0.856323 0.494843 0.000000
0.877777 0.494843 0.000000
0.898895 0.494843 0.000000
0.919708 0.494843 0.000000
0.940186 0.494843 0.000000
0.960388 0.494843 0.000000
0.980316 0.494843 0.000000
1.000000 0.494843 0.000000
0.000000 0.526001 0.000000
0.095398 0.526001 0.000000
0.177032 0.526001 0.000000
0.241608 0.526001 0.000000
0.289093 0.526001 0.000000
0.330933 0.526001 0.000000
0.369629 0.526001 0.000000
0.405792 0.526001 0.000000
0.440002 0.526001 0.000000
0.472565 0.526001 0.000000
0.503723 0.526001 0.000000
0.533691 0.526001 0.000000
0.562592 0.526001 0.000000
0.590546 0.526001 0.000000
0.617676 0.526001 0.000000
0.644043 0.526001 0.000000
0.669769 0.526001 0.000000
0.694855 0.526001 0.000000
0.719299 0.526001 0.000000
0.743286 0.526001 0.000000
0.766754 0.526001 0.000000
0.789764 0.526001 0.000000
0.812317 0.526001 0.000000
0.834534 0.526001 0.000000
0.856323 0.526001 0.000000
0.877777 0.526001 0.000000
0.898895 0.526001 0.000000
0.919708 0.526001 0.000000
0.940186 0.526001 0.000000
0.960388 0.526001 0.000000
0.980316 0.526001 0.000000
1.000000 0.526001 0.000000
0.000000 0.556946 0.000000
0.095398 0.556946 0.000000
0.177032 0.556946 0.000000
0.241608 0.556946 0.000000
0.289093 0.556946 0.000000
0.330933 0.556946 0.000000
0.369629 0.556946 0.000000
0.405792 0.556946 0.000000
0.440002 0.556946 0.000000
0.472565 0.556946 0.000000
0.503723 0.556946 0.000000
0.533691 0.556946 0.000000
0.562592 0.556946 0.000000
0.590546 0.556946 0.000000
0.617676 0.556946 0.000000
0.644043 0.556946 0.000000
0.669769 0.556946 0.000000
0.694855 0.556946 0.000000
0.719299 0.556946 0.000000
0.743286 0.556946 0.000000
0.766754 0.556946 0.000000
0.789764 0.556946 0.000000
0.812317 0.556946 0.000000
0.834534 0.556946 0.000000
0.856323 0.556946 0.000000
0.877777 0.556946 0.000000
0.898895 0.556946 0.000000
0.919708 0.556946 0.000000
0.940186 0.556946 0.000000
0.960388 0.556946 0.000000
0.980316 0.556946 0.000000
1.000000 0.556946 0.000000
0.000000 0.587646 0.000000
0.095398 0.587646 0.000000
0.177032 0.587646 0.000000
0.241608 0.587646 0.000000
0.289093 0.587646 0.000000
0.330933 0.587646 0.000000
0.369629 0.587646 0.000000
0.405792 0.587646 0.000000
0.440002 0.587646 0.000000
0.472565 0.587646 0.000000
0.503723 0.587646 0.000000
0.533691 0.587646 0.000000
0.562592 0.587646 0.000000
0.590546 0.587646 0.000000
0.617676 0.587646 0.000000
0.644043 0.587646 0.000000
0.669769 0.587646 0.000000
0.694855 0.587646 0.000000
0.719299 0.587646 0.000000
0.743286 0.587646 0.000000
0.766754 0.587646 0.000000
0.789764 0.587646 0.000000
0.812317 0.587646 0.000000
0.834534 0.587646 0.000000
0.856323 0.587646 0.000000
0.877777 0.587646 0.000000
0.898895 0.587646 0.000000
0.919708 0.587646 0.000000
0.940186 0.587646 0.000000
0.960388 0.587646 0.000000
0.980316 0.587646 0.000000
1.000000 0.587646 0.000000
0.000000 0.618134 0.000000
0.095398 0.618134 0.000000
0.177032 0.618134 0.000000
0.241608 0.618134 0.000000
0.289093 0.618134 0.000000
0.330933 0.618134 0.000000
0.369629 0.618134 0.000000
0.405792 0.618134 0.000000
0.440002 0.618134 0.000000
0.472565 0.618134 0.000000
0.503723 0.618134 0.000000
0.533691 0.618134 0.000000
0.562592 0.618134 0.000000
0.590546 0.618134 0.000000
0.617676 0.618134 0.000000
0.644043 0.618134 0.000000
0.669769 0.618134 0.000000
0.694855 0.618134 0.000000
0.719299 0.618134 0.000000
0.743286 0.618134 0.000000
0.766754 0.618134 0.000000
0.789764 0.618134 0.000000
0.812317 0.618134 0.000000
0.834534 0.618134 0.000000
0.856323 0.618134 0.000000
0.877777 0.618134 0.000000
0.898895 0.618134 0.000000
0.919708 0.618134 0.000000
0.940186 0.618134 0.000000
0.960388 0.618134 0.000000
0.980316 0.618134 0.000000
1.000000 0.618134 0.000000
0.000000 0.648438 0.000000
0.095398 0.648438 0.000000
0.177032 0.648438 0.000000
0.241608 0.648438 0.000000
0.289093 0.648438 0.000000
0.330933 0.648438 0.000000
0.369629 0.648438 0.000000
0.405792 0.648438 0.000000
0.440002 0.648438 0.000000
0.472565 0.648438 0.000000
0.503723 0.648438 0.000000
0.533691 0.648438 0.000000
0.562592 0.648438 0.000000
0.590546 0.648438 0.000000
0.617676 0.648438 0.000000
0.644043 0.648438 0.000000
0.669769 0.648438 0.000000
0.694855 0.648438 0.000000
0.719299 0.648438 0.000000
0.743286 0.648438 0.000000
0.766754 0.648438 0.000000
0.789764 0.648438 0.000000
0.812317 0.648438 0.000000
0.834534 0.648438 0.000000
0.856323 0.648438 0.000000
0.877777 0.648438 0.000000
0.898895 0.648438 0.000000
0.919708 0.648438 0.000000
0.940186 0.648438 0.000000
0.960388 0.648438 0.000000
0.980316 0.648438 0.000000
1.000000 0.648438 0.000000
0.000000 0.678528 0.000000
0.095398 0.678528 0.000000
0.177032 0.678528 0.000000
0.241608 0.678528 0.000000
0.289093 0.678528 0.000000
0.330933 0.678528 0.000000
0.369629 0.678528 0.000000
0.405792 0.678528 0.000000
0.440002 0.678528 0.000000
0.472565 0.678528 0.000000
0.503723 0.678528 0.000000
0.533691 0.678528 0.000000
0.562592 0.678528 0.000000
0.590546 0.678528 0.000000
0.617676 0.678528 0.000000
0.644043 0.678528 0.000000
0.669769 0.678528 0.000000
0.694855 0.678528 0.000000
0.719299 0.678528 0.000000
0.743286 0.678528 0.000000
0.766754 0.678528 0.000000
0.789764 0.678528 0.000000
0.812317 0.678528 0.000000
0.834534 0.678528 0.000000
0.856323 0.678528 0.000000
0.877777 0.678528 0.000000
0.898895 0.678528 0.000000
0.919708 0.678528 0.000000
0.940186 0.678528 0.000000
0.960388 0.678528 0.000000
0.980316 0.678528 0.000000
1.000000 0.678528 0.000000
0.000000 0.708466 0.000000
0.095398 0.708466 0.000000
0.177032 0.708466 0.000000
0.241608 0.708466 0.000000
0.289093 0.708466 0.000000
0.330933 0.708466 0.000000
0.369629 0.708466 0.000000
0.405792 0.708466 0.000000
0.440002 0.708466 0.000000
0.472565 0.708466 0.000000
0.503723 0.708466 0.000000
0.533691 0.708466 0.000000
0.562592 0.708466 0.000000
0.590546 0.708466 0.000000
0.617676 0.708466 0.000000
0.644043 0.708466 0.000000
0.669769 0.708466 0.000000
0.694855 0.708466 0.000000
0.719299 0.708466 0.000000
0.743286 0.708466 0.000000
0.766754 0.708466 0.000000
0.789764 0.708466 0.000000
0.812317 0.708466 0.000000
0.834534 0.708466 0.000000
0.856323 0.708466 0.000000
0.877777 0.708466 0.000000
0.898895 0.708466 0.000000
0.919708 0.708466 0.000000
0.940186 0.708466 0.000000
0.960388 0.708466 0.000000
0.980316 0.708466 0.000000
1.000000 0.708466 0.000000
0.000000 0.738251 0.000000
0.095398 0.738251 0.000000
0.177032 0.738251 0.000000
0.241608 0.738251 0.000000
0.289093 0.738251 0.000000
0.330933 0.738251 0.000000
0.369629 0.738251 0.000000
0.405792 0.738251 0.000000
0.440002 0.738251 0.000000
0.472565 0.738251 0.000000
0.503723 0.738251 0.000000
0.533691 0.738251 0.000000
0.562592 0.738251 0.000000
0.590546 0.738251 0.000000
0.617676 0.738251 0.000000
0.644043 0.738251 0.000000
0.669769 0.738251 0.000000
0.694855 0.738251 0.000000
0.719299 0.738251 0.000000
0.743286 0.738251 0.000000
0.766754 0.738251 0.000000
0.789764 0.738251 0.000000
0.812317 0.738251 0.000000
0.834534 0.738251 0.000000
0.856323 0.738251 0.000000
0.877777 0.738251 0.000000
0.898895 0.738251 0.000000
0.919708 0.738251 0.000000
0.940186 0.738251 0.000000
0.960388 0.738251 0.000000
0.980316 0.738251 0.000000
1.000000 0.738251 0.000000
0.000000 0.767853 0.000000
0.095398 0.767853 0.000000
0.177032 0.767853 0.000000
0.241608 0.767853 0.000000
0.289093 0.767853 0.000000
0.330933 0.767853 0.000000
0.369629 0.767853 0.000000
0.405792 0.767853 0.000000
0.440002 0.767853 0.000000
0.472565 0.767853 0.000000
0.503723 0.767853 0.000000
0.533691 0.767853 0.000000
0.562592 0.767853 0.000000
0.590546 0.767853 0.000000
0.617676 0.767853 0.000000
0.644043 0.767853 0.000000
0.669769 0.767853 0.000000
0.694855 0.767853 0.000000
0.719299 0.767853 0.000000
0.743286 0.767853 0.000000
0.766754 0.767853 0.000000
0.789764 0.767853 0.000000
0.812317 0.767853 0.000000
0.834534 0.767853 0.000000
0.856323 0.767853 0.000000
0.877777 0.767853 0.000000
0.898895 0.767853 0.000000
0.919708 0.767853 0.000000
0.940186 0.767853 0.000000
0.960388 0.767853 0.000000
0.980316 0.767853 0.000000
1.000000 0.767853 0.000000
0.000000 0.797333 0.000000
0.095398 0.797333 0.000000
0.177032 0.797333 0.000000
0.241608 0.797333 0.000000
0.289093 0.797333 0.000000
0.330933 0.797333 0.000000
0.369629 0.797333 0.000000
0.405792 0.797333 0.000000
0.440002 0.797333 0.000000
0.472565 0.797333 0.000000
0.503723 0.797333 0.000000
0.533691 0.797333 0.000000
0.562592 0.797333 0.000000
0.590546 0.797333 0.000000
0.617676 0.797333 0.000000
0.644043 0.797333 0.000000
0.669769 0.797333 0.000000
0.694855 0.797333 0.000000
0.719299 0.797333 0.000000
0.743286 0.797333 0.000000
0.766754 0.797333 0.000000
0.789764 0.797333 0.000000
0.812317 0.797333 0.000000
0.834534 0.797333 0.000000
0.856323 0.797333 0.000000
0.877777 0.797333 0.000000
0.898895 0.797333 0.000000
0.919708 0.797333 0.000000
0.940186 0.797333 0.000000
0.960388 0.797333 0.000000
0.980316 0.797333 0.000000
1.000000 0.797333 0.000000
0.000000 0.826660 0.000000
0.095398 0.826660 0.000000
0.177032 0.826660 0.000000
0.241608 0.826660 0.000000
0.289093 0.826660 0.000000
0.330933 0.826660 0.000000
0.369629 0.826660 0.000000
0.405792 0.826660 0.000000
0.440002 0.826660 0.000000
0.472565 0.826660 0.000000
0.503723 0.826660 0.000000
0.533691 0.826660 0.000000
0.562592 0.826660 0.000000
0.590546 0.826660 0.000000
0.617676 0.826660 0.000000
0.644043 0.826660 0.000000
0.669769 0.826660 0.000000
0.694855 0.826660 0.000000
0.719299 0.826660 0.000000
0.743286 0.826660 0.000000
0.766754 0.826660 0.000000
0.789764 0.826660 0.000000
0.812317 0.826660 0.000000
0.834534 0.826660 0.000000
0.856323 0.826660 0.000000
0.877777 0.826660 0.000000
0.898895 0.826660 0.000000
0.919708 0.826660 0.000000
0.940186 0.826660 0.000000
0.960388 0.826660 0.000000
0.980316 0.826660 0.000000
1.000000 0.826660 0.000000
0.000000 0.855865 0.000000
0.095398 0.855865 0.000000
0.177032 0.855865 0.000000
0.241608 0.855865 0.000000
0.289093 0.855865 0.000000
0.330933 0.855865 0.000000
0.369629 0.855865 0.000000
0.405792 0.855865 0.000000
0.440002 0.855865 0.000000
0.472565 0.855865 0.000000
0.503723 0.855865 0.000000
0.533691 0.855865 0.000000
0.562592 0.855865 0.000000
0.590546 0.855865 0.000000
0.617676 0.855865 0.000000
0.644043 0.855865 0.000000
0.669769 0.855865 0.000000
0.694855 0.855865 0.000000
0.719299 0.855865 0.000000
0.743286 0.855865 0.000000
0.766754 0.855865 0.000000
0.789764 0.855865 0.000000
0.812317 0.855865 0.000000
0.834534 0.855865 0.000000
0.856323 0.855865 0.000000
0.877777 0.855865 0.000000
0.898895 0.855865 0.000000
0.919708 0.855865 0.000000
0.940186 0.855865 0.000000
0.960388 0.855865 0.000000
0.980316 0.855865 0.000000
1.000000 0.855865 0.000000
0.000000 0.884949 0.000000
0.095398 0.884949 0.000000
0.177032 0.884949 0.000000
0.241608 0.884949 0.000000
0.289093 0.884949 0.000000
0.330933 0.884949 0.000000
0.369629 0.884949 0.000000
0.405792 0.884949 0.000000
0.440002 0.884949 0.000000
0.472565 0.884949 0.000000
0.503723 0.884949 0.000000
0.533691 0.884949 0.000000
0.562592 0.884949 0.000000
0.590546 0.884949 0.000000
0.617676 0.884949 0.000000
0.644043 0.884949 0.000000
0.669769 0.884949 0.000000
0.694855 0.884949 0.000000
