Assignment 1 - Ryan Yee - 100785620/luts/warmCC.CUBE
#Created by: Adobe Photoshop Export Color Lookup Plugin
TITLE "Untitled-1"
#LUT size
LUT_3D_SIZE 5
#data domain
#LUT data points
DOMAIN_MIN 0.000000 0.000000 0.000000
DOMAIN_MAX 0.903226 0.903226 0.903226
0.000000 0.000000 0.000000
0.405792 0.000000 0.000000
0.617676 0.000000 0.000000
0.789764 0.000000 0.000000
0.940186 0.000000 0.000000
0.000000 0.267975 0.000000
0.405792 0.267975 0.000000
0.617676 0.267975 0.000000
0.789764 0.267975 0.000000
0.940186 0.267975 0.000000
0.000000 0.494843 0.000000
0.405792 0.494843 0.000000
0.617676 0.494843 0.000000
0.789764 0.494843 0.000000
0.940186 0.494843 0.000000
0.000000 0.708466 0.000000
0.405792 0.708466 0.000000
0.617676 0.708466 0.000000
0.789764 0.708466 0.000000
0.940186 0.708466 0.000000
0.000000 0.913849 0.000000
0.405792 0.913849 0.000000
0.617676 0.913849 0.000000
0.789764 0.913849 0.000000
0.940186 0.913849 0.000000
0.000000 0.000000 0.087189
0.405792 0.000000 0.087189
0.617676 0.000000 0.087189
0.789764 0.000000 0.087189
0.940186 0.000000 0.087189
0.000000 0.267975 0.087189
0.405792 0.267975 0.087189
0.617676 0.267975 0.087189
0.789764 0.267975 0.087189
0.940186 0.267975 0.087189
0.000000 0.494843 0.087189
0.405792 0.494843 0.087189
0.617676 0.494843 0.087189
0.789764 0.494843 0.087189
0.940186 0.494843 0.087189
0.000000 0.708466 0.087189
0.405792 0.708466 0.087189
0.617676 0.708466 0.087189
0.789764 0.708466 0.087189
0.940186 0.708466 0.087189
0.000000 0.913849 0.087189
0.405792 0.913849 0.087189
0.617676 0.913849 0.087189
0.789764 0.913849 0.087189
0.940186 0.913849 0.087189
0.000000 0.000000 0.271667
0.405792 0.000000 0.271667
0.617676 0.000000 0.271667
0.789764 0.000000 0.271667
0.940186 0.000000 0.271667
0.000000 0.267975 0.271667
0.405792 0.267975 0.271667
0.617676 0.267975 0.271667
0.789764 0.267975 0.271667
0.940186 0.267975 0.271667
0.000000 0.494843 0.271667
0.405792 0.494843 0.271667
0.617676 0.494843 0.271667
0.789764 0.494843 0.271667
0.940186 0.494843 0.271667
0.000000 0.708466 0.271667
0.405792 0.708466 0.271667
0.617676 0.708466 0.271667
0.789764 0.708466 0.271667
0.940186 0.708466 0.271667
0.000000 0.913849 0.271667
0.405792 0.913849 0.271667
0.617676 0.913849 0.271667
0.789764 0.913849 0.271667
0.940186 0.913849 0.271667
0.000000 0.000000 0.528137
0.405792 0.000000 0.528137
0.617676 0.000000 0.528137
0.789764 0.000000 0.528137
0.940186 0.000000 0.528137
0.000000 0.267975 0.528137
0.405792 0.267975 0.528137
0.617676 0.267975 0.528137
0.789764 0.267975 0.528137
0.940186 0.267975 0.528137
0.000000 0.494843 0.528137
0.405792 0.494843 0.528137
0.617676 0.494843 0.528137
0.789764 0.494843 0.528137
0.940186 0.494843 0.528137
0.000000 0.708466 0.528137
0.405792 0.708466 0.528137
0.617676 0.708466 0.528137
0.789764 0.708466 0.528137
0.940186 0.708466 0.528137
0.000000 0.913849 0.528137
0.405792 0.913849 0.528137
0.617676 0.913849 0.528137
0.789764 0.913849 0.528137
0.940186 0.913849 0.528137
0.000000 0.000000 0.846344
0.405792 0.000000 0.846344
0.617676 0.000000 0.846344
0.789764 0.000000 0.846344
0.940186 0.000000 0.846344
0.000000 0.267975 0.846344
0.405792 0.267975 0.846344
0.617676 0.267975 0.846344
0.789764 0.267975 0.846344
0.940186 0.267975 0.846344
0.000000 0.494843 0.846344
0.405792 0.494843 0.846344
0.617676 0.494843 0.846344
0.789764 0.494843 0.846344
0.940186 0.494843 0.846344
0.000000 0.708466 0.846344
0.405792 0.708466 0.846344
0.617676 0.708466 0.846344
0.789764 0.708466 0.846344
0.940186 0.708466 0.846344
0.000000 0.913849 0.846344
0.405792 0.913849 0.846344
0.617676 0.913849 0.846344
0.789764 0.913849 0.846344
0.940186 0.913849 0.846344
