Assignment 1 - Ryan Yee - 100785620/luts/warmCC.CUBE
#Created by: Adobe Photoshop Export Color Lookup Plugin
TITLE "Untitled-1"
#LUT size
LUT_3D_SIZE 8
#data domain
#LUT data points
DOMAIN_MIN 0.000000 0.000000 0.000000
DOMAIN_MAX 0.903226 0.903226 0.903226
0.000000 0.000000 0.000000
0.289093 0.000000 0.000000
0.440002 0.000000 0.000000
0.562592 0.000000 0.000000
0.669769 0.000000 0.000000
0.766754 0.000000 0.000000
0.856323 0.000000 0.000000
0.940186 0.000000 0.000000
0.000000 0.163330 0.000000
0.289093 0.163330 0.000000
0.440002 0.163330 0.000000
0.562592 0.163330 0.000000
0.669769 0.163330 0.000000
0.766754 0.163330 0.000000
0.856323 0.163330 0.000000
0.940186 0.163330 0.000000
0.000000 0.301575 0.000000
0.289093 0.301575 0.000000
0.440002 0.301575 0.000000
0.562592 0.301575 0.000000
0.669769 0.301575 0.000000
0.766754 0.301575 0.000000
0.856323 0.301575 0.000000
0.940186 0.301575 0.000000
0.000000 0.431732 0.000000
0.289093 0.431732 0.000000
0.440002 0.431732 0.000000
0.562592 0.431732 0.000000
0.669769 0.431732 0.000000
0.766754 0.431732 0.000000
0.856323 0.431732 0.000000
0.940186 0.431732 0.000000
0.000000 0.556946 0.000000
0.289093 0.556946 0.000000
0.440002 0.556946 0.000000
0.562592 0.556946 0.000000
0.669769 0.556946 0.000000
0.766754 0.556946 0.000000
0.856323 0.556946 0.000000
0.940186 0.556946 0.000000
0.000000 0.678528 0.000000
0.289093 0.678528 0.000000
0.440002 0.678528 0.000000
0.562592 0.678528 0.000000
0.669769 0.678528 0.000000
0.766754 0.678528 0.000000
0.856323 0.678528 0.000000
0.940186 0.678528 0.000000
0.000000 0.797333 0.000000
0.289093 0.797333 0.000000
0.440002 0.797333 0.000000
0.562592 0.797333 0.000000
0.669769 0.797333 0.000000
0.766754 0.797333 0.000000
0.856323 0.797333 0.000000
0.940186 0.797333 0.000000
0.000000 0.913849 0.000000
0.289093 0.913849 0.000000
0.440002 0.913849 0.000000
0.562592 0.913849 0.000000
0.669769 0.913849 0.000000
0.766754 0.913849 0.000000
0.856323 0.913849 0.000000
0.940186 0.913849 0.000000
0.000000 0.000000 0.034851
0.289093 0.000000 0.034851
0.440002 0.000000 0.034851
0.562592 0.000000 0.034851
0.669769 0.000000 0.034851
0.766754 0.000000 0.034851
0.856323 0.000000 0.034851
0.940186 0.000000 0.034851
0.000000 0.163330 0.034851
0.289093 0.163330 0.034851
0.440002 0.163330 0.034851
0.562592 0.163330 0.034851
0.669769 0.163330 0.034851
0.766754 0.163330 0.034851
0.856323 0.163330 0.034851
0.940186 0.163330 0.034851
0.000000 0.301575 0.034851
0.289093 0.301575 0.034851
0.440002 0.301575 0.034851
0.562592 0.301575 0.034851
0.669769 0.301575 0.034851
0.766754 0.301575 0.034851
0.856323 0.301575 0.034851
0.940186 0.301575 0.034851
0.000000 0.431732 0.034851
0.289093 0.431732 0.034851
0.440002 0.431732 0.034851
0.562592 0.431732 0.034851
0.669769 0.431732 0.034851
0.766754 0.431732 0.034851
0.856323 0.431732 0.034851
0.940186 0.431732 0.034851
0.000000 0.556946 0.034851
0.289093 0.556946 0.034851
0.440002 0.556946 0.034851
0.562592 0.556946 0.034851
0.669769 0.556946 0.034851
0.766754 0.556946 0.034851
0.856323 0.556946 0.034851
0.940186 0.556946 0.034851
0.000000 0.678528 0.034851
0.289093 0.678528 0.034851
0.440002 0.678528 0.034851
0.562592 0.678528 0.034851
0.669769 0.678528 0.034851
0.766754 0.678528 0.034851
0.856323 0.678528 0.034851
0.940186 0.678528 0.034851
0.000000 0.797333 0.034851
0.289093 0.797333 0.034851
0.440002 0.797333 0.034851
0.562592 0.797333 0.034851
0.669769 0.797333 0.034851
0.766754 0.797333 0.034851
0.856323 0.797333 0.034851
0.940186 0.797333 0.034851
0.000000 0.913849 0.034851
0.289093 0.913849 0.034851
0.440002 0.913849 0.034851
0.562592 0.913849 0.034851
0.669769 0.913849 0.034851
0.766754 0.913849 0.034851
0.856323 0.913849 0.034851
0.940186 0.913849 0.034851
0.000000 0.000000 0.108551
0.289093 0.000000 0.108551
0.440002 0.000000 0.108551
0.562592 0.000000 0.108551
0.669769 0.000000 0.108551
0.766754 0.000000 0.108551
0.856323 0.000000 0.108551
0.940186 0.000000 0.108551
0.000000 0.163330 0.108551
0.289093 0.163330 0.108551
0.440002 0.163330 0.108551
0.562592 0.163330 0.108551
0.669769 0.163330 0.108551
0.766754 0.163330 0.108551
0.856323 0.163330 0.108551
0.940186 0.163330 0.108551
0.000000 0.301575 0.108551
0.289093 0.301575 0.108551
0.440002 0.301575 0.108551
0.562592 0.301575 0.108551
0.669769 0.301575 0.108551
0.766754 0.301575 0.108551
0.856323 0.301575 0.108551
0.940186 0.301575 0.108551
0.000000 0.431732 0.108551
0.289093 0.431732 0.108551
0.440002 0.431732 0.108551
0.562592 0.431732 0.108551
0.669769 0.431732 0.108551
0.766754 0.431732 0.108551
0.856323 0.431732 0.108551
0.940186 0.431732 0.108551
0.000000 0.556946 0.108551
0.289093 0.556946 0.108551
0.440002 0.556946 0.108551
0.562592 0.556946 0.108551
0.669769 0.556946 0.108551
0.766754 0.556946 0.108551
0.856323 0.556946 0.108551
0.940186 0.556946 0.108551
0.000000 0.678528 0.108551
0.289093 0.678528 0.108551
0.440002 0.678528 0.108551
0.562592 0.678528 0.108551
0.669769 0.678528 0.108551
0.766754 0.678528 0.108551
0.856323 0.678528 0.108551
0.940186 0.678528 0.108551
0.000000 0.797333 0.108551
0.289093 0.797333 0.108551
0.440002 0.797333 0.108551
0.562592 0.797333 0.108551
0.669769 0.797333 0.108551
0.766754 0.797333 0.108551
0.856323 0.797333 0.108551
0.940186 0.797333 0.108551
0.000000 0.913849 0.108551
0.289093 0.913849 0.108551
0.440002 0.913849 0.108551
0.562592 0.913849 0.108551
0.669769 0.913849 0.108551
0.766754 0.913849 0.108551
0.856323 0.913849 0.108551
0.940186 0.913849 0.108551
0.000000 0.000000 0.210999
0.289093 0.000000 0.210999
0.440002 0.000000 0.210999
0.562592 0.000000 0.210999
0.669769 0.000000 0.210999
0.766754 0.000000 0.210999
0.856323 0.000000 0.210999
0.940186 0.000000 0.210999
0.000000 0.163330 0.210999
0.289093 0.163330 0.210999
0.440002 0.163330 0.210999
0.562592 0.163330 0.210999
0.669769 0.163330 0.210999
0.766754 0.163330 0.210999
0.856323 0.163330 0.210999
0.940186 0.163330 0.210999
0.000000 0.301575 0.210999
0.289093 0.301575 0.210999
0.440002 0.301575 0.210999
0.562592 0.301575 0.210999
0.669769 0.301575 0.210999
0.766754 0.301575 0.210999
0.856323 0.301575 0.210999
0.940186 0.301575 0.210999
0.000000 0.431732 0.210999
0.289093 0.431732 0.210999
0.440002 0.431732 0.210999
0.562592 0.431732 0.210999
0.669769 0.431732 0.210999
0.766754 0.431732 0.210999
0.856323 0.431732 0.210999
0.940186 0.431732 0.210999
0.000000 0.556946 0.210999
0.289093 0.556946 0.210999
0.440002 0.556946 0.210999
0.562592 0.556946 0.210999
0.669769 0.556946 0.210999
0.766754 0.556946 0.210999
0.856323 0.556946 0.210999
0.940186 0.556946 0.210999
0.000000 0.678528 0.210999
0.289093 0.678528 0.210999
0.440002 0.678528 0.210999
0.562592 0.678528 0.210999
0.669769 0.678528 0.210999
0.766754 0.678528 0.210999
0.856323 0.678528 0.210999
0.940186 0.678528 0.210999
0.000000 0.797333 0.210999
0.289093 0.797333 0.210999
0.440002 0.797333 0.210999
0.562592 0.797333 0.210999
0.669769 0.797333 0.210999
0.766754 0.797333 0.210999
0.856323 0.797333 0.210999
0.940186 0.797333 0.210999
0.000000 0.913849 0.210999
0.289093 0.913849 0.210999
0.440002 0.913849 0.210999
0.562592 0.913849 0.210999
0.669769 0.913849 0.210999
0.766754 0.913849 0.210999
0.856323 0.913849 0.210999
0.940186 0.913849 0.210999
0.000000 0.000000 0.338165
0.289093 0.000000 0.338165
0.440002 0.000000 0.338165
0.562592 0.000000 0.338165
0.669769 0.000000 0.338165
0.766754 0.000000 0.338165
0.856323 0.000000 0.338165
0.940186 0.000000 0.338165
0.000000 0.163330 0.338165
0.289093 0.163330 0.338165
0.440002 0.163330 0.338165
0.562592 0.163330 0.338165
0.669769 0.163330 0.338165
0.766754 0.163330 0.338165
0.856323 0.163330 0.338165
0.940186 0.163330 0.338165
0.000000 0.301575 0.338165
0.289093 0.301575 0.338165
0.440002 0.301575 0.338165
0.562592 0.301575 0.338165
0.669769 0.301575 0.338165
0.766754 0.301575 0.338165
0.856323 0.301575 0.338165
0.940186 0.301575 0.338165
0.000000 0.431732 0.338165
0.289093 0.431732 0.338165
0.440002 0.431732 0.338165
0.562592 0.431732 0.338165
0.669769 0.431732 0.338165
0.766754 0.431732 0.338165
0.856323 0.431732 0.338165
0.940186 0.431732 0.338165
0.000000 0.556946 0.338165
0.289093 0.556946 0.338165
0.440002 0.556946 0.338165
0.562592 0.556946 0.338165
0.669769 0.556946 0.338165
0.766754 0.556946 0.338165
0.856323 0.556946 0.338165
0.940186 0.556946 0.338165
0.000000 0.678528 0.338165
0.289093 0.678528 0.338165
0.440002 0.678528 0.338165
0.562592 0.678528 0.338165
0.669769 0.678528 0.338165
0.766754 0.678528 0.338165
0.856323 0.678528 0.338165
0.940186 0.678528 0.338165
0.000000 0.797333 0.338165
0.289093 0.797333 0.338165
0.440002 0.797333 0.338165
0.562592 0.797333 0.338165
0.669769 0.797333 0.338165
0.766754 0.797333 0.338165
0.856323 0.797333 0.338165
0.940186 0.797333 0.338165
0.000000 0.913849 0.338165
0.289093 0.913849 0.338165
0.440002 0.913849 0.338165
0.562592 0.913849 0.338165
0.669769 0.913849 0.338165
0.766754 0.913849 0.338165
0.856323 0.913849 0.338165
0.940186 0.913849 0.338165
0.000000 0.000000 0.487518
0.289093 0.000000 0.487518
0.440002 0.000000 0.487518
0.562592 0.000000 0.487518
0.669769 0.000000 0.487518
0.766754 0.000000 0.487518
0.856323 0.000000 0.487518
0.940186 0.000000 0.487518
0.000000 0.163330 0.487518
0.289093 0.163330 0.487518
0.440002 0.163330 0.487518
0.562592 0.163330 0.487518
0.669769 0.163330 0.487518
0.766754 0.163330 0.487518
0.856323 0.163330 0.487518
0.940186 0.163330 0.487518
0.000000 0.301575 0.487518
0.289093 0.301575 0.487518
0.440002 0.301575 0.487518
0.562592 0.301575 0.487518
0.669769 0.301575 0.487518
0.766754 0.301575 0.487518
0.856323 0.301575 0.487518
0.940186 0.301575 0.487518
0.000000 0.431732 0.487518
0.289093 0.431732 0.487518
0.440002 0.431732 0.487518
0.562592 0.431732 0.487518
0.669769 0.431732 0.487518
0.766754 0.431732 0.487518
0.856323 0.431732 0.487518
0.940186 0.431732 0.487518
0.000000 0.556946 0.487518
0.289093 0.556946 0.487518
0.440002 0.556946 0.487518
0.562592 0.556946 0.487518
0.669769 0.556946 0.487518
0.766754 0.556946 0.487518
0.856323 0.556946 0.487518
0.940186 0.556946 0.487518
0.000000 0.678528 0.487518
0.289093 0.678528 0.487518
0.440002 0.678528 0.487518
0.562592 0.678528 0.487518
0.669769 0.678528 0.487518
0.766754 0.678528 0.487518
0.856323 0.678528 0.487518
0.940186 0.678528 0.487518
0.000000 0.797333 0.487518
0.289093 0.797333 0.487518
0.440002 0.797333 0.487518
0.562592 0.797333 0.487518
0.669769 0.797333 0.487518
0.766754 0.797333 0.487518
0.856323 0.797333 0.487518
0.940186 0.797333 0.487518
0.000000 0.913849 0.487518
0.289093 0.913849 0.487518
0.440002 0.913849 0.487518
0.562592 0.913849 0.487518
0.669769 0.913849 0.487518
0.766754 0.913849 0.487518
0.856323 0.913849 0.487518
0.940186 0.913849 0.487518
0.000000 0.000000 0.657349
0.289093 0.000000 0.657349
0.440002 0.000000 0.657349
0.562592 0.000000 0.657349
0.669769 0.000000 0.657349
0.766754 0.000000 0.657349
0.856323 0.000000 0.657349
0.940186 0.000000 0.657349
0.000000 0.163330 0.657349
0.289093 0.163330 0.657349
0.440002 0.163330 0.657349
0.562592 0.163330 0.657349
0.669769 0.163330 0.657349
0.766754 0.163330 0.657349
0.856323 0.163330 0.657349
0.940186 0.163330 0.657349
0.000000 0.301575 0.657349
0.289093 0.301575 0.657349
0.440002 0.301575 0.657349
0.562592 0.301575 0.657349
0.669769 0.301575 0.657349
0.766754 0.301575 0.657349
0.856323 0.301575 0.657349
0.940186 0.301575 0.657349
0.000000 0.431732 0.657349
0.289093 0.431732 0.657349
0.440002 0.431732 0.657349
0.562592 0.431732 0.657349
0.669769 0.431732 0.657349
0.766754 0.431732 0.657349
0.856323 0.431732 0.657349
0.940186 0.431732 0.657349
0.000000 0.556946 0.657349
0.289093 0.556946 0.657349
0.440002 0.556946 0.657349
0.562592 0.556946 0.657349
0.669769 0.556946 0.657349
0.766754 0.556946 0.657349
0.856323 0.556946 0.657349
0.940186 0.556946 0.657349
0.000000 0.678528 0.657349
0.289093 0.678528 0.657349
0.440002 0.678528 0.657349
0.562592 0.678528 0.657349
0.669769 0.678528 0.657349
0.766754 0.678528 0.657349
0.856323 0.678528 0.657349
0.940186 0.678528 0.657349
0.000000 0.797333 0.657349
0.289093 0.797333 0.657349
0.440002 0.797333 0.657349
0.562592 0.797333 0.657349
0.669769 0.797333 0.657349
0.766754 0.797333 0.657349
0.856323 0.797333 0.657349
0.940186 0.797333 0.657349
0.000000 0.913849 0.657349
0.289093 0.913849 0.657349
0.440002 0.913849 0.657349
0.562592 0.913849 0.657349
0.669769 0.913849 0.657349
0.766754 0.913849 0.657349
0.856323 0.913849 0.657349
0.940186 0.913849 0.657349
0.000000 0.000000 0.846344
0.289093 0.000000 0.846344
0.440002 0.000000 0.846344
0.562592 0.000000 0.846344
0.669769 0.000000 0.846344
0.766754 0.000000 0.846344
0.856323 0.000000 0.846344
0.940186 0.000000 0.846344
0.000000 0.163330 0.846344
0.289093 0.163330 0.846344
0.440002 0.163330 0.846344
0.562592 0.163330 0.846344
0.669769 0.163330 0.846344
0.766754 0.163330 0.846344
0.856323 0.163330 0.846344
0.940186 0.163330 0.846344
0.000000 0.301575 0.846344
0.289093 0.301575 0.846344
0.440002 0.301575 0.846344
0.562592 0.301575 0.846344
0.669769 0.301575 0.846344
0.766754 0.301575 0.846344
0.856323 0.301575 0.846344
0.940186 0.301575 0.846344
0.000000 0.431732 0.846344
0.289093 0.431732 0.846344
0.440002 0.431732 0.846344
0.562592 0.431732 0.846344
0.669769 0.431732 0.846344
0.766754 0.431732 0.846344
0.856323 0.431732 0.846344
0.940186 0.431732 0.846344
0.000000 0.556946 0.846344
0.289093 0.556946 0.846344
0.440002 0.556946 0.846344
0.562592 0.556946 0.846344
0.669769 0.556946 0.846344
0.766754 0.556946 0.846344
0.856323 0.556946 0.846344
0.940186 0.556946 0.846344
0.000000 0.678528 0.846344
0.289093 0.678528 0.846344
0.440002 0.678528 0.846344
0.562592 0.678528 0.846344
0.669769 0.678528 0.846344
0.766754 0.678528 0.846344
0.856323 0.678528 0.846344
0.940186 0.678528 0.846344
0.000000 0.797333 0.846344
0.289093 0.797333 0.846344
0.440002 0.797333 0.846344
0.562592 0.797333 0.846344
0.669769 0.797333 0.846344
0.766754 0.797333 0.846344
0.856323 0.797333 0.846344
0.940186 0.797333 0.846344
0.000000 0.913849 0.846344
0.289093 0.913849 0.846344
0.440002 0.913849 0.846344
0.562592 0.913849 0.846344
0.669769 0.913849 0.846344
0.766754 0.913849 0.846344
0.856323 0.913849 0.846344
0.940186 0.913849 0.846344
